O0001
N10( NC FILE : CAE93F~1 )
N20( DATE : 5.7.20017 & TIME - 11:34:32 )
N30( PMPost VERSION : 4.800 CB01100 )
N40( MACHINE TOOL : --- & MODEL : --- )
N50( CONTROLLER : Fanuc & SERIES : 6m )
N60( OPTION FILE : Fanuc6m )
N70( OUTPUT WP : Global )
N80( OUTPUT UNITS : MM )
N90G91G28
N100G0G40G17G80G49
N110( =============)
N120( TOOLPATH : Desbaste de topo )
N130( STRATEGY USED : Face )
N140( TOOLPATH WP : World )
N150( =============)
N160( TOOL TYPE : ENDMILL )
N170( TOOL NAME : Topo 16 mm )
N180( TOOL DIA.: 16 ; TIP RAD.: 0 & LENGTH : 80 )
N190T1M6
N200G54G90
N210S5100M3
N220M8
N230G0X140.Y97.
N240G43Z10.H1
N250X288.Y-3.
N260Z5.
N270G1Z-2.5F209
N280X-8.F620
N290G0Z10.
N300X288.Y2.
N310Z5.
N320G1Z-2.5F209
N330X-8.F620
N340G0Z10.
N350X288.Y7.
N360Z5.
N370G1Z-2.5F209
N380X-8.F620
N390G0Z10.
N400X288.Y12.
N410Z5.
N420G1Z-2.5F209
N430X-8.F620
N440G0Z10.
N450X288.Y17.
N460Z5.
N470G1Z-2.5F209
N480X-8.F620
N490G0Z10.
N500X288.Y22.
N510Z5.
N520G1Z-2.5F209
N530X-8.F620
N540G0Z10.
N550X288.Y27.
N560Z5.
N570G1Z-2.5F209
N580X-8.F620
N590G0Z10.
N600X288.Y32.
N610Z5.
N620G1Z-2.5F209
N630X-8.F620
N640G0Z10.
N650X288.Y37.
N660Z5.
N670G1Z-2.5F209
N680X-8.F620
N690G0Z10.
N700X288.Y42.
N710Z5.
N720G1Z-2.5F209
N730X-8.F620
N740G0Z10.
N750X288.Y47.
N760Z5.
N770G1Z-2.5F209
N780X-8.F620
N790G0Z10.
N800X288.Y52.
N810Z5.
N820G1Z-2.5F209
N830X-8.F620
N840G0Z10.
N850X288.Y57.
N860Z5.
N870G1Z-2.5F209
N880X-8.F620
N890G0Z10.
N900X288.Y62.
N910Z5.
N920G1Z-2.5F209
N930X-8.F620
N940G0Z10.
N950X288.Y67.
N960Z5.
N970G1Z-2.5F209
N980X-8.F620
N990G0Z10.
N1000X288.Y72.
N1010Z5.
N1020G1Z-2.5F209
N1030X-8.F620
N1040G0Z10.
N1050X288.Y77.
N1060Z5.
N1070G1Z-2.5F209
N1080X-8.F620
N1090G0Z10.
N1100X288.Y82.
N1110Z5.
N1120G1Z-2.5F209
N1130X-8.F620
N1140G0Z10.
N1150X288.Y87.
N1160Z5.
N1170G1Z-2.5F209
N1180X-8.F620
N1190G0Z10.
N1200X288.Y92.
N1210Z5.
N1220G1Z-2.5F209
N1230X-8.F620
N1240G0Z10.
N1250X288.Y97.
N1260Z5.
N1270G1Z-2.5F209
N1280X-8.F620
N1290G0Z10.
N1300X288.Y102.
N1310Z5.
N1320G1Z-2.5F209
N1330X-8.F620
N1340G0Z10.
N1350X288.Y107.
N1360Z5.
N1370G1Z-2.5F209
N1380X-8.F620
N1390G0Z10.
N1400X288.Y112.
N1410Z5.
N1420G1Z-2.5F209
N1430X-8.F620
N1440G0Z10.
N1450X288.Y117.
N1460Z5.
N1470G1Z-2.5F209
N1480X-8.F620
N1490G0Z10.
N1500X288.Y122.
N1510Z5.
N1520G1Z-2.5F209
N1530X-8.F620
N1540G0Z10.
N1550X288.Y127.
N1560Z5.
N1570G1Z-2.5F209
N1580X-8.F620
N1590G0Z10.
N1600X288.Y132.
N1610Z5.
N1620G1Z-2.5F209
N1630X-8.F620
N1640G0Z10.
N1650X288.Y137.
N1660Z5.
N1670G1Z-2.5F209
N1680X-8.F620
N1690G0Z10.
N1700X288.Y142.
N1710Z5.
N1720G1Z-2.5F209
N1730X-8.F620
N1740G0Z10.
N1750X288.Y147.
N1760Z5.
N1770G1Z-2.5F209
N1780X-8.F620
N1790G0Z10.
N1800X288.Y152.
N1810Z5.
N1820G1Z-2.5F209
N1830X-8.F620
N1840G0Z10.
N1850X288.Y157.
N1860Z5.
N1870G1Z-2.5F209
N1880X-8.F620
N1890G0Z10.
N1900X288.Y162.
N1910Z5.
N1920G1Z-2.5F209
N1930X-8.F620
N1940G0Z10.
N1950X288.Y167.
N1960Z5.
N1970G1Z-2.5F209
N1980X-8.F620
N1990G0Z10.
N2000X288.Y172.
N2010Z5.
N2020G1Z-2.5F209
N2030X-8.F620
N2040G0Z10.
N2050X288.Y177.
N2060Z5.
N2070G1Z-2.5F209
N2080X-8.F620
N2090G0Z10.
N2100X288.Y182.
N2110Z5.
N2120G1Z-2.5F209
N2130X-8.F620
N2140G0Z10.
N2150Y197.
N2160Z5.
N2170G1Z-2.5F209
N2180X288.F620
N2190G0Z10.
N2200Y-3.
N2210Z5.
N2220G1Z-5.F209
N2230X-8.F620
N2240G0Z10.
N2250X288.Y2.
N2260Z5.
N2270G1Z-5.F209
N2280X-8.F620
N2290G0Z10.
N2300X288.Y7.
N2310Z5.
N2320G1Z-5.F209
N2330X-8.F620
N2340G0Z10.
N2350X288.Y12.
N2360Z5.
N2370G1Z-5.F209
N2380X-8.F620
N2390G0Z10.
N2400X288.Y17.
N2410Z5.
N2420G1Z-5.F209
N2430X-8.F620
N2440G0Z10.
N2450X288.Y22.
N2460Z5.
N2470G1Z-5.F209
N2480X-8.F620
N2490G0Z10.
N2500X288.Y27.
N2510Z5.
N2520G1Z-5.F209
N2530X-8.F620
N2540G0Z10.
N2550X288.Y32.
N2560Z5.
N2570G1Z-5.F209
N2580X-8.F620
N2590G0Z10.
N2600X288.Y37.
N2610Z5.
N2620G1Z-5.F209
N2630X-8.F620
N2640G0Z10.
N2650X288.Y42.
N2660Z5.
N2670G1Z-5.F209
N2680X-8.F620
N2690G0Z10.
N2700X288.Y47.
N2710Z5.
N2720G1Z-5.F209
N2730X-8.F620
N2740G0Z10.
N2750X288.Y52.
N2760Z5.
N2770G1Z-5.F209
N2780X-8.F620
N2790G0Z10.
N2800X288.Y57.
N2810Z5.
N2820G1Z-5.F209
N2830X-8.F620
N2840G0Z10.
N2850X288.Y62.
N2860Z5.
N2870G1Z-5.F209
N2880X-8.F620
N2890G0Z10.
N2900X288.Y67.
N2910Z5.
N2920G1Z-5.F209
N2930X-8.F620
N2940G0Z10.
N2950X288.Y72.
N2960Z5.
N2970G1Z-5.F209
N2980X-8.F620
N2990G0Z10.
N3000X288.Y77.
N3010Z5.
N3020G1Z-5.F209
N3030X-8.F620
N3040G0Z10.
N3050X288.Y82.
N3060Z5.
N3070G1Z-5.F209
N3080X-8.F620
N3090G0Z10.
N3100X288.Y87.
N3110Z5.
N3120G1Z-5.F209
N3130X-8.F620
N3140G0Z10.
N3150X288.Y92.
N3160Z5.
N3170G1Z-5.F209
N3180X-8.F620
N3190G0Z10.
N3200X288.Y97.
N3210Z5.
N3220G1Z-5.F209
N3230X-8.F620
N3240G0Z10.
N3250X288.Y102.
N3260Z5.
N3270G1Z-5.F209
N3280X-8.F620
N3290G0Z10.
N3300X288.Y107.
N3310Z5.
N3320G1Z-5.F209
N3330X-8.F620
N3340G0Z10.
N3350X288.Y112.
N3360Z5.
N3370G1Z-5.F209
N3380X-8.F620
N3390G0Z10.
N3400X288.Y117.
N3410Z5.
N3420G1Z-5.F209
N3430X-8.F620
N3440G0Z10.
N3450X288.Y122.
N3460Z5.
N3470G1Z-5.F209
N3480X-8.F620
N3490G0Z10.
N3500X288.Y127.
N3510Z5.
N3520G1Z-5.F209
N3530X-8.F620
N3540G0Z10.
N3550X288.Y132.
N3560Z5.
N3570G1Z-5.F209
N3580X-8.F620
N3590G0Z10.
N3600X288.Y137.
N3610Z5.
N3620G1Z-5.F209
N3630X-8.F620
N3640G0Z10.
N3650X288.Y142.
N3660Z5.
N3670G1Z-5.F209
N3680X-8.F620
N3690G0Z10.
N3700X288.Y147.
N3710Z5.
N3720G1Z-5.F209
N3730X-8.F620
N3740G0Z10.
N3750X288.Y152.
N3760Z5.
N3770G1Z-5.F209
N3780X-8.F620
N3790G0Z10.
N3800X288.Y157.
N3810Z5.
N3820G1Z-5.F209
N3830X-8.F620
N3840G0Z10.
N3850X288.Y162.
N3860Z5.
N3870G1Z-5.F209
N3880X-8.F620
N3890G0Z10.
N3900X288.Y167.
N3910Z5.
N3920G1Z-5.F209
N3930X-8.F620
N3940G0Z10.
N3950X288.Y172.
N3960Z5.
N3970G1Z-5.F209
N3980X-8.F620
N3990G0Z10.
N4000X288.Y177.
N4010Z5.
N4020G1Z-5.F209
N4030X-8.F620
N4040G0Z10.
N4050X288.Y182.
N4060Z5.
N4070G1Z-5.F209
N4080X-8.F620
N4090G0Z10.
N4100Y197.
N4110Z5.
N4120G1Z-5.F209
N4130X288.F620
N4140G0Z10.
N4150X137.Y94.
N4160( =============)
N4170( TOOLPATH : Desbaste de cavidade )
N4180( STRATEGY USED : Offset_area_clear )
N4190( TOOLPATH WP : World )
N4200( =============)
N4210M8
N4220G0X95.49Y95.537
N4230Z5.
N4240G1Y106.99Z2.981F209
N4250X77.51Z-0.189
N4260Y97.Z-1.95
N4270Y87.01F620
N4280X95.49
N4290Y106.99
N4300X77.51
N4310Y97.
N4320G3G17X82.41Y97.I2.45J0.
N4330X72.51Y97.I-4.95J0.
N4340G1Y82.01
N4350X100.49
N4360Y111.99
N4370X72.51
N4380Y97.
N4390G3X77.41Y97.I2.45J0.
N4400X67.51Y97.I-4.95J0.
N4410G1Y77.01
N4420X105.49
N4430Y116.99
N4440X67.51
N4450Y97.
N4460G3X72.41Y97.I2.45J0.
N4470X62.51Y97.I-4.95J0.
N4480G1Y72.01
N4490X110.49
N4500Y121.99
N4510X62.51
N4520Y97.
N4530G3X67.41Y97.I2.45J0.
N4540X57.51Y97.I-4.95J0.
N4550G1Y67.01
N4560X115.49
N4570Y126.99
N4580X57.51
N4590Y97.
N4600G3X62.41Y97.I2.45J0.
N4610X52.51Y97.I-4.95J0.
N4620G1Y62.01
N4630X120.49
N4640Y131.99
N4650X52.51
N4660Y97.
N4670G3X57.41Y97.I2.45J0.
N4680X47.51Y97.I-4.95J0.
N4690G1Y57.01
N4700X125.49
N4710Y136.99
N4720X47.51
N4730Y97.
N4740G3X52.41Y97.I2.45J0.
N4750X42.51Y97.I-4.95J0.
N4760G1Y52.01
N4770X130.49
N4780Y141.99
N4790X42.51
N4800Y97.
N4810G3X47.41Y97.I2.45J0.
N4820X37.51Y97.I-4.95J0.
N4830G1Y47.01
N4840X135.49
N4850Y146.99
N4860X37.51
N4870Y97.
N4880G3X42.41Y97.I2.45J0.
N4890X32.51Y97.I-4.95J0.
N4900G1Y42.01
N4910X140.49
N4920Y151.99
N4930X32.51
N4940Y97.
N4950G3X37.41Y97.I2.45J0.
N4960X27.51Y97.I-4.95J0.
N4970G1Y37.01
N4980X145.49
N4990Y156.99
N5000X27.51
N5010Y97.
N5020G3X32.41Y97.I2.45J0.
N5030X22.51Y97.I-4.95J0.
N5040G1Y32.01
N5050X150.49
N5060Y161.99
N5070X22.51
N5080Y97.
N5090G3X25.01Y95.964I1.464J0.
N5100G2X27.51Y97.I2.5J-2.5
N5110G1X32.51
N5120X37.51
N5130X42.51
N5140X47.51
N5150X52.51
N5160X57.51
N5170X62.51
N5180X67.51
N5190X72.51
N5200X77.51
N5210G2X80.01Y95.964I0.J-3.536
N5220G3X82.51Y97.I1.036J1.036
N5230G1Y101.99
N5240X90.49
N5250Y92.01
N5260X82.51
N5270Y97.
N5280G3X80.01Y98.036I-1.464J0.
N5290G2X77.51Y97.I-2.5J2.5
N5300G0Z10.
N5310X92.956Y87.01
N5320Z5.
N5330G1X95.49Z4.553F209
N5340Y106.99Z1.031
N5350X77.51Z-2.139
N5360Y97.Z-3.9
N5370Y87.01F620
N5380X95.49
N5390Y106.99
N5400X77.51
N5410Y97.
N5420G3X82.41Y97.I2.45J0.
N5430X72.51Y97.I-4.95J0.
N5440G1Y82.01
N5450X100.49
N5460Y111.99
N5470X72.51
N5480Y97.
N5490G3X77.41Y97.I2.45J0.
N5500X67.51Y97.I-4.95J0.
N5510G1Y77.01
N5520X105.49
N5530Y116.99
N5540X67.51
N5550Y97.
N5560G3X72.41Y97.I2.45J0.
N5570X62.51Y97.I-4.95J0.
N5580G1Y72.01
N5590X110.49
N5600Y121.99
N5610X62.51
N5620Y97.
N5630G3X67.41Y97.I2.45J0.
N5640X57.51Y97.I-4.95J0.
N5650G1Y67.01
N5660X115.49
N5670Y126.99
N5680X57.51
N5690Y97.
N5700G3X62.41Y97.I2.45J0.
N5710X52.51Y97.I-4.95J0.
N5720G1Y62.01
N5730X120.49
N5740Y131.99
N5750X52.51
N5760Y97.
N5770G3X57.41Y97.I2.45J0.
N5780X47.51Y97.I-4.95J0.
N5790G1Y57.01
N5800X125.49
N5810Y136.99
N5820X47.51
N5830Y97.
N5840G3X52.41Y97.I2.45J0.
N5850X42.51Y97.I-4.95J0.
N5860G1Y52.01
N5870X130.49
N5880Y141.99
N5890X42.51
N5900Y97.
N5910G3X47.41Y97.I2.45J0.
N5920X37.51Y97.I-4.95J0.
N5930G1Y47.01
N5940X135.49
N5950Y146.99
N5960X37.51
N5970Y97.
N5980G3X42.41Y97.I2.45J0.
N5990X32.51Y97.I-4.95J0.
N6000G1Y42.01
N6010X140.49
N6020Y151.99
N6030X32.51
N6040Y97.
N6050G3X37.41Y97.I2.45J0.
N6060X27.51Y97.I-4.95J0.
N6070G1Y37.01
N6080X145.49
N6090Y156.99
N6100X27.51
N6110Y97.
N6120G3X32.41Y97.I2.45J0.
N6130X22.51Y97.I-4.95J0.
N6140G1Y32.01
N6150X150.49
N6160Y161.99
N6170X22.51
N6180Y97.
N6190G3X25.01Y95.964I1.464J0.
N6200G2X27.51Y97.I2.5J-2.5
N6210G1X32.51
N6220X37.51
N6230X42.51
N6240X47.51
N6250X52.51
N6260X57.51
N6270X62.51
N6280X67.51
N6290X72.51
N6300X77.51
N6310G2X80.01Y95.964I0.J-3.536
N6320G3X82.51Y97.I1.036J1.036
N6330G1Y101.99
N6340X90.49
N6350Y92.01
N6360X82.51
N6370Y97.
N6380G3X80.01Y98.036I-1.464J0.
N6390G2X77.51Y97.I-2.5J2.5
N6400G0Z10.
N6410X95.49Y102.152
N6420Z5.
N6430G1Y105.5Z4.41F209
N6440X79.Z1.503
N6450Y88.5Z-1.494
N6460X95.49Z-4.401
N6470Y97.Z-5.9
N6480Y105.5F620
N6490X79.
N6500Y88.5
N6510X95.49
N6520Y97.
N6530G3X90.59Y97.I-2.45J0.
N6540X100.49Y97.I4.95J0.
N6550G1Y108.836
N6560X100.304Y109.667
N6570X100.132Y110.5
N6580X74.
N6590Y83.5
N6600X100.132
N6610X100.304Y84.333
N6620X100.49Y85.164
N6630Y97.
N6640G3X95.59Y97.I-2.45J0.
N6650X105.49Y97.I4.95J0.
N6660G1Y109.426
N6670G2X104.43Y115.5I43.697J10.756
N6680G1X69.
N6690Y78.5
N6700X104.43
N6710G2X105.49Y84.574I44.757J-4.682
N6720G1Y97.
N6730G3X100.59Y97.I-2.45J0.
N6740X110.49Y97.I4.95J0.
N6750G1Y110.051
N6760G2X109.4Y116.045I38.697J10.131
N6770G1X109.215Y117.828
N6780X109.099Y119.163
N6790X109.027Y120.5
N6800X64.
N6810Y73.5
N6820X109.027
N6830X109.099Y74.837
N6840X109.215Y76.172
N6850X109.4Y77.955
N6860G2X110.49Y83.949I39.787J-4.137
N6870G1Y97.
N6880G3X105.59Y97.I-2.45J0.
N6890X115.49Y97.I4.95J0.
N6900G1Y110.716
N6910G2X114.373Y116.562I33.697J9.466
N6920G1X114.188Y118.345
N6930X114.047Y120.153
N6940X114.Y121.965
N6950Y125.5
N6960X59.
N6970Y68.5
N6980X114.
N6990Y72.035
N7000X114.047Y73.847
N7010X114.188Y75.655
N7020X114.373Y77.438
N7030G2X115.49Y83.284I34.814J-3.62
N7040G1Y97.
N7050G3X110.59Y97.I-2.45J0.
N7060X120.49Y97.I4.95J0.
N7070G1Y111.432
N7080G2X119.347Y117.079I28.696J8.75
N7090G1X119.161Y118.863
N7100X119.041Y120.412
N7110X119.Y121.965
N7120Y130.5
N7130X54.
N7140Y63.5
N7150X119.
N7160Y72.035
N7170X119.041Y73.588
N7180X119.161Y75.137
N7190X119.347Y76.921
N7200G2X120.49Y82.568I29.839J-3.103
N7210G1Y97.
N7220G3X115.59Y97.I-2.45J0.
N7230X125.49Y97.I4.95J0.
N7240G1Y112.209
N7250X125.416Y112.435
N7260G2X124.32Y117.596I23.771J7.747
N7270G1X124.134Y119.38
N7280X124.034Y120.671
N7290X124.Y121.965
N7300Y135.5
N7310X49.
N7320Y58.5
N7330X124.
N7340Y72.035
N7350X124.034Y73.329
N7360X124.134Y74.62
N7370X124.32Y76.404
N7380G2X125.358Y81.384I24.866J-2.586
N7390G1X125.49Y81.799
N7400Y97.
N7410G3X120.59Y97.I-2.45J0.
N7420X130.49Y97.I4.95J0.
N7430G1Y113.003
N7440X130.17Y113.984
N7450G2X129.293Y118.114I19.016J6.198
N7460G1X129.108Y119.897
N7470X129.027Y120.93
N7480X129.Y121.965
N7490Y140.5
N7500X44.
N7510Y53.5
N7520X129.
N7530Y72.035
N7540X129.027Y73.07
N7550X129.108Y74.103
N7560X129.293Y75.886
N7570G2X130.124Y79.871I19.894J-2.068
N7580G1X130.49Y81.025
N7590Y97.
N7600G3X125.59Y97.I-2.45J0.
N7610X135.49Y97.I4.95J0.
N7620G1Y113.797
N7630X134.924Y115.534
N7640X134.513Y117.065
N7650X134.266Y118.631
N7660X134.081Y120.414
N7670X134.02Y121.189
N7680X134.Y121.965
N7690Y145.5
N7700X39.
N7710Y48.5
N7720X134.
N7730Y72.035
N7740X134.02Y72.811
N7750X134.081Y73.586
N7760X134.266Y75.369
N7770X134.501Y76.879
N7780X134.889Y78.358
N7790X135.455Y80.141
N7800X135.473Y80.195
N7810X135.49Y80.248
N7820Y97.
N7830G3X130.59Y97.I-2.45J0.
N7840X140.49Y97.I4.95J0.
N7850G1Y114.643
N7860X140.391Y114.907
N7870X140.3Y115.174
N7880X139.678Y117.083
N7890X139.404Y118.104
N7900X139.239Y119.148
N7910X139.054Y120.931
N7920X139.014Y121.448
N7930X139.Y121.965
N7940Y150.5
N7950X34.
N7960Y43.5
N7970X139.
N7980Y72.035
N7990X139.014Y72.552
N8000X139.054Y73.069
N8010X139.239Y74.852
N8020X139.396Y75.859
N8030X139.655Y76.844
N8040X140.221Y78.628
N8050X140.348Y79.002
N8060X140.49Y79.372
N8070Y97.
N8080G3X135.59Y97.I-2.45J0.
N8090X145.49Y97.I4.95J0.
N8100G1Y115.752
N8110X145.246Y116.226
N8120X145.054Y116.724
N8130X144.432Y118.633
N8140X144.295Y119.143
N8150X144.212Y119.665
N8160X144.027Y121.448
N8170X144.007Y121.706
N8180X144.Y121.965
N8190Y155.5
N8200X29.
N8210Y38.5
N8220X144.
N8230Y72.035
N8240X144.007Y72.294
N8250X144.027Y72.552
N8260X144.212Y74.335
N8270X144.291Y74.838
N8280X144.42Y75.331
N8290X144.986Y77.114
N8300X145.18Y77.626
N8310X145.429Y78.114
N8320X145.49Y78.218
N8330Y97.
N8340G3X140.59Y97.I-2.45J0.
N8350X150.49Y97.I4.95J0.
N8360G1Y117.12
N8370X149.808Y118.273
N8380X149.186Y120.182
N8390X149.Y121.965
N8400Y157.63
N8410X148.916Y159.761
N8420X148.704Y160.143
N8430X148.351Y160.388
N8440X146.241Y160.5
N8450X26.764
N8460X24.653Y160.389
N8470X24.298Y160.145
N8480X24.085Y159.762
N8490X24.Y157.63
N8500Y36.37
N8510X24.085Y34.238
N8520X24.298Y33.855
N8530X24.653Y33.611
N8540X26.764Y33.5
N8550X146.241
N8560X148.025Y33.546
N8570X148.536Y33.709
N8580X148.915Y34.239
N8590X149.Y36.37
N8600Y72.035
N8610X149.186Y73.818
N8620X149.752Y75.601
N8630X150.49Y76.871
N8640Y97.
N8650G3X147.99Y98.035I-1.464J0.
N8660G2X145.49Y97.I-2.5J2.5
N8670G1X140.49
N8680X135.49
N8690X130.49
N8700X125.49
N8710X120.49
N8720X115.49
N8730X110.49
N8740X105.49
N8750X100.49
N8760X95.49
N8770G2X92.99Y98.035I0.J3.535
N8780G3X90.49Y97.I-1.036J-1.035
N8790G1Y93.5
N8800X84.
N8810Y100.5
N8820X90.49
N8830Y97.
N8840G3X92.99Y95.964I1.464J0.
N8850G2X95.49Y97.I2.5J-2.5
N8860G0Z10.
N8870X79.Y103.192
N8880Z5.
N8890G1Y97.Z3.908F209
N8900Y88.5Z2.41
N8910X95.49Z-0.497
N8920Y105.5Z-3.494
N8930X79.Z-6.401
N8940Y97.Z-7.9
N8950Y88.5F620
N8960X95.49
N8970Y105.5
N8980X79.
N8990Y97.
N9000G3X83.9Y97.I2.45J0.
N9010X74.Y97.I-4.95J0.
N9020G1Y83.5
N9030X100.132
N9040X100.304Y84.333
N9050X100.49Y85.164
N9060Y108.836
N9070X100.304Y109.666
N9080X100.132Y110.5
N9090X74.
N9100Y97.
N9110G3X78.9Y97.I2.45J0.
N9120X69.Y97.I-4.95J0.
N9130G1Y78.5
N9140X104.43
N9150G2X105.49Y84.574I44.759J-4.683
N9160G1Y109.426
N9170G2X104.43Y115.5I43.698J10.756
N9180G1X69.
N9190Y97.
N9200G3X73.9Y97.I2.45J0.
N9210X64.Y97.I-4.95J0.
N9220G1Y73.5
N9230X109.027
N9240X109.098Y74.837
N9250X109.215Y76.17
N9260X109.4Y77.954
N9270G2X110.49Y83.95I39.786J-4.136
N9280G1Y110.05
N9290G2X109.4Y116.046I38.696J10.132
N9300G1X109.215Y117.83
N9310X109.099Y119.163
N9320X109.027Y120.5
N9330X64.
N9340Y97.
N9350G3X68.9Y97.I2.45J0.
N9360X59.Y97.I-4.95J0.
N9370G1Y68.5
N9380X114.
N9390Y72.035
N9400X114.047Y73.846
N9410X114.188Y75.653
N9420X114.373Y77.437
N9430G2X115.49Y83.284I34.814J-3.619
N9440G1Y110.716
N9450G2X114.373Y116.563I33.697J9.466
N9460G1X114.188Y118.347
N9470X114.047Y120.154
N9480X114.Y121.965
N9490Y125.5
N9500X59.
N9510Y97.
N9520G3X63.9Y97.I2.45J0.
N9530X54.Y97.I-4.95J0.
N9540G1Y63.5
N9550X119.
N9560Y72.035
N9570X119.04Y73.588
N9580X119.161Y75.136
N9590X119.346Y76.92
N9600G2X120.49Y82.568I29.84J-3.102
N9610G1Y111.432
N9620G2X119.346Y117.08I28.696J8.75
N9630G1X119.161Y118.864
N9640X119.04Y120.412
N9650X119.Y121.965
N9660Y130.5
N9670X54.
N9680Y97.
N9690G3X58.9Y97.I2.45J0.
N9700X49.Y97.I-4.95J0.
N9710G1Y58.5
N9720X124.
N9730Y72.035
N9740X124.034Y73.329
N9750X124.134Y74.619
N9760X124.32Y76.403
N9770G2X125.358Y81.384I24.866J-2.585
N9780G1X125.49Y81.8
N9790Y112.209
N9800X125.417Y112.434
N9810G2X124.32Y117.597I23.768J7.748
N9820G1X124.134Y119.381
N9830X124.034Y120.671
N9840X124.Y121.965
N9850Y135.5
N9860X49.
N9870Y97.
N9880G3X53.9Y97.I2.45J0.
N9890X44.Y97.I-4.95J0.
N9900G1Y53.5
N9910X129.
N9920Y72.035
N9930X129.027Y73.07
N9940X129.107Y74.102
N9950X129.293Y75.886
N9960G2X130.124Y79.871I19.893J-2.068
N9970G1X130.49Y81.025
N9980Y113.003
N9990X130.17Y113.984
N10000G2X129.293Y118.114I19.016J6.198
N10010G1X129.107Y119.898
N10020X129.027Y120.93
N10030X129.Y121.965
N10040Y140.5
N10050X44.
N10060Y97.
N10070G3X48.9Y97.I2.45J0.
N10080X39.Y97.I-4.95J0.
N10090G1Y48.5
N10100X134.
N10110Y72.035
N10120X134.02Y72.811
N10130X134.081Y73.586
N10140X134.266Y75.369
N10150X134.501Y76.879
N10160X134.889Y78.358
N10170X135.455Y80.141
N10180X135.473Y80.195
N10190X135.49Y80.249
N10200Y113.797
N10210X134.924Y115.533
N10220X134.513Y117.065
N10230X134.266Y118.631
N10240X134.081Y120.414
N10250X134.02Y121.189
N10260X134.Y121.965
N10270Y145.5
N10280X39.
N10290Y97.
N10300G3X43.9Y97.I2.45J0.
N10310X34.Y97.I-4.95J0.
N10320G1Y43.5
N10330X139.
N10340Y72.035
N10350X139.014Y72.552
N10360X139.054Y73.069
N10370X139.239Y74.852
N10380X139.396Y75.859
N10390X139.655Y76.844
N10400X140.221Y78.628
N10410X140.348Y79.002
N10420X140.49Y79.372
N10430Y114.643
N10440X140.391Y114.907
N10450X140.3Y115.174
N10460X139.678Y117.083
N10470X139.404Y118.104
N10480X139.239Y119.148
N10490X139.054Y120.931
N10500X139.014Y121.448
N10510X139.Y121.965
N10520Y150.5
N10530X34.
N10540Y97.
N10550G3X38.9Y97.I2.45J0.
N10560X29.Y97.I-4.95J0.
N10570G1Y38.5
N10580X144.
N10590Y72.035
N10600X144.007Y72.293
N10610X144.027Y72.552
N10620X144.212Y74.335
N10630X144.291Y74.838
N10640X144.42Y75.331
N10650X144.986Y77.114
N10660X145.18Y77.626
N10670X145.429Y78.114
N10680X145.49Y78.219
N10690Y115.752
N10700X145.246Y116.226
N10710X145.054Y116.724
N10720X144.432Y118.632
N10730X144.295Y119.143
N10740X144.212Y119.665
N10750X144.027Y121.448
N10760X144.007Y121.707
N10770X144.Y121.965
N10780Y155.5
N10790X29.
N10800Y97.
N10810G3X33.9Y97.I2.45J0.
N10820X24.Y97.I-4.95J0.
N10830G1Y36.37
N10840X24.085Y34.238
N10850X24.298Y33.855
N10860X24.653Y33.611
N10870X26.764Y33.5
N10880X146.241
N10890X148.025Y33.546
N10900X148.536Y33.709
N10910X148.915Y34.239
N10920X149.Y36.37
N10930Y72.035
N10940X149.186Y73.818
N10950X149.752Y75.601
N10960X150.49Y76.871
N10970Y117.12
N10980X149.808Y118.273
N10990X149.186Y120.182
N11000X149.Y121.965
N11010Y157.63
N11020X148.916Y159.761
N11030X148.704Y160.143
N11040X148.351Y160.388
N11050X146.241Y160.5
N11060X26.764
N11070X24.653Y160.389
N11080X24.298Y160.145
N11090X24.085Y159.762
N11100X24.Y157.63
N11110Y97.
N11120G3X26.5Y95.964I1.464J0.
N11130G2X29.Y97.I2.5J-2.5
N11140G1X34.
N11150X39.
N11160X44.
N11170X49.
N11180X54.
N11190X59.
N11200X64.
N11210X69.
N11220X74.
N11230X79.
N11240G2X81.5Y95.964I0.J-3.536
N11250G3X84.Y97.I1.035J1.036
N11260G1Y100.5
N11270X90.49
N11280Y93.5
N11290X84.
N11300Y97.
N11310G3X81.5Y98.035I-1.465J0.
N11320G2X79.Y97.I-2.5J2.5
N11330G0Z10.
N11340X86.453Y88.5
N11350Z5.
N11360G1X95.49Z3.407F209
N11370Y97.Z1.908
N11380Y105.5Z0.41
N11390X79.Z-2.497
N11400Y88.5Z-5.494
N11410X95.49Z-8.401
N11420Y97.Z-9.9
N11430Y105.5F620
N11440X79.
N11450Y88.5
N11460X95.49
N11470Y97.
N11480G3X90.59Y97.I-2.45J0.
N11490X100.49Y97.I4.95J0.
N11500G1Y108.835
N11510X100.304Y109.666
N11520X100.132Y110.5
N11530X74.
N11540Y83.5
N11550X100.132
N11560X100.304Y84.334
N11570X100.49Y85.165
N11580Y97.
N11590G3X95.59Y97.I-2.45J0.
N11600X105.49Y97.I4.95J0.
N11610G1Y109.426
N11620G2X104.43Y115.5I43.696J10.756
N11630G1X69.
N11640Y78.5
N11650X104.43
N11660G2X105.49Y84.574I44.756J-4.682
N11670G1Y97.
N11680G3X100.59Y97.I-2.45J0.
N11690X110.49Y97.I4.95J0.
N11700G1Y110.05
N11710G2X109.4Y116.048I38.697J10.132
N11720G1X109.214Y117.831
N11730X109.098Y119.164
N11740X109.027Y120.5
N11750X64.
N11760Y73.5
N11770X109.027
N11780X109.098Y74.836
N11790X109.214Y76.169
N11800X109.4Y77.952
N11810G2X110.49Y83.95I39.787J-4.134
N11820G1Y97.
N11830G3X105.59Y97.I-2.45J0.
N11840X115.49Y97.I4.95J0.
N11850G1Y110.716
N11860G2X114.373Y116.565I33.695J9.466
N11870G1X114.188Y118.348
N11880X114.047Y120.154
N11890X114.Y121.965
N11900Y125.5
N11910X59.
N11920Y68.5
N11930X114.
N11940Y72.035
N11950X114.047Y73.846
N11960X114.188Y75.652
N11970X114.373Y77.435
N11980G2X115.49Y83.284I34.812J-3.617
N11990G1Y97.
N12000G3X110.59Y97.I-2.45J0.
N12010X120.49Y97.I4.95J0.
N12020G1Y111.432
N12030G2X119.346Y117.081I28.696J8.75
N12040G1X119.161Y118.865
N12050X119.04Y120.413
N12060X119.Y121.965
N12070Y130.5
N12080X54.
N12090Y63.5
N12100X119.
N12110Y72.035
N12120X119.04Y73.587
N12130X119.161Y75.135
N12140X119.346Y76.919
N12150G2X120.49Y82.568I29.84J-3.101
N12160G1Y97.
N12170G3X115.59Y97.I-2.45J0.
N12180X125.49Y97.I4.95J0.
N12190G1Y112.208
N12200X125.417Y112.433
N12210G2X124.319Y117.598I23.769J7.749
N12220G1X124.134Y119.381
N12230X124.034Y120.672
N12240X124.Y121.965
N12250Y135.5
N12260X49.
N12270Y58.5
N12280X124.
N12290Y72.035
N12300X124.034Y73.328
N12310X124.134Y74.619
N12320X124.319Y76.402
N12330G2X125.358Y81.384I24.866J-2.584
N12340G1X125.49Y81.8
N12350Y97.
N12360G3X120.59Y97.I-2.45J0.
N12370X130.49Y97.I4.95J0.
N12380G1Y113.003
N12390X130.171Y113.983
N12400G2X129.293Y118.115I19.014J6.199
N12410G1X129.107Y119.898
N12420X129.027Y120.93
N12430X129.Y121.965
N12440Y140.5
N12450X44.
N12460Y53.5
N12470X129.
N12480Y72.035
N12490X129.027Y73.07
N12500X129.107Y74.102
N12510X129.293Y75.885
N12520G2X130.123Y79.871I19.894J-2.067
N12530G1X130.49Y81.025
N12540Y97.
N12550G3X125.59Y97.I-2.45J0.
N12560X135.49Y97.I4.95J0.
N12570G1Y113.797
N12580X134.924Y115.533
N12590X134.513Y117.065
N12600X134.266Y118.632
N12610X134.081Y120.415
N12620X134.02Y121.189
N12630X134.Y121.965
N12640Y145.5
N12650X39.
N12660Y48.5
N12670X134.
N12680Y72.035
N12690X134.02Y72.811
N12700X134.081Y73.585
N12710X134.266Y75.368
N12720X134.501Y76.879
N12730X134.889Y78.358
N12740X135.455Y80.141
N12750X135.473Y80.195
N12760X135.49Y80.249
N12770Y97.
N12780G3X130.59Y97.I-2.45J0.
N12790X140.49Y97.I4.95J0.
N12800G1Y114.643
N12810X140.391Y114.907
N12820X140.3Y115.174
N12830X139.678Y117.082
N12840X139.404Y118.104
N12850X139.239Y119.149
N12860X139.054Y120.932
N12870X139.014Y121.448
N12880X139.Y121.965
N12890Y150.5
N12900X34.
N12910Y43.5
N12920X139.
N12930Y72.035
N12940X139.014Y72.552
N12950X139.054Y73.068
N12960X139.239Y74.851
N12970X139.396Y75.859
N12980X139.654Y76.844
N12990X140.221Y78.628
N13000X140.348Y79.003
N13010X140.49Y79.372
N13020Y97.
N13030G3X135.59Y97.I-2.45J0.
N13040X145.49Y97.I4.95J0.
N13050G1Y115.752
N13060X145.246Y116.226
N13070X145.054Y116.724
N13080X144.432Y118.632
N13090X144.295Y119.143
N13100X144.212Y119.665
N13110X144.027Y121.449
N13120X144.007Y121.707
N13130X144.Y121.965
N13140Y155.5
N13150X29.
N13160Y38.5
N13170X144.
N13180Y72.035
N13190X144.007Y72.293
N13200X144.027Y72.551
N13210X144.212Y74.335
N13220X144.291Y74.838
N13230X144.42Y75.331
N13240X144.986Y77.114
N13250X145.18Y77.626
N13260X145.429Y78.114
N13270X145.49Y78.219
N13280Y97.
N13290G3X140.59Y97.I-2.45J0.
N13300X150.49Y97.I4.95J0.
N13310G1Y117.12
N13320X149.808Y118.273
N13330X149.186Y120.182
N13340X149.Y121.965
N13350Y157.63
N13360X148.916Y159.761
N13370X148.704Y160.143
N13380X148.351Y160.388
N13390X146.241Y160.5
N13400X26.764
N13410X24.653Y160.389
N13420X24.298Y160.145
N13430X24.085Y159.762
N13440X24.Y157.63
N13450Y36.37
N13460X24.085Y34.238
N13470X24.298Y33.855
N13480X24.653Y33.611
N13490X26.764Y33.5
N13500X146.241
N13510X148.025Y33.546
N13520X148.536Y33.709
N13530X148.915Y34.239
N13540X149.Y36.37
N13550Y72.035
N13560X149.186Y73.818
N13570X149.752Y75.601
N13580X150.49Y76.871
N13590Y97.
N13600G3X147.99Y98.035I-1.464J0.
N13610G2X145.49Y97.I-2.5J2.5
N13620G1X140.49
N13630X135.49
N13640X130.49
N13650X125.49
N13660X120.49
N13670X115.49
N13680X110.49
N13690X105.49
N13700X100.49
N13710X95.49
N13720G2X92.99Y98.035I0.J3.535
N13730G3X90.49Y97.I-1.036J-1.035
N13740G1Y93.5
N13750X84.
N13760Y100.5
N13770X90.49
N13780Y97.
N13790G3X92.99Y95.964I1.464J0.
N13800G2X95.49Y97.I2.5J-2.5
N13810G0Z10.
N13820Y101.608
N13830Z5.
N13840G1Y105.5Z4.314F209
N13850X79.Z1.407
N13860Y97.Z-0.092
N13870Y88.5Z-1.59
N13880X95.49Z-4.497
N13890Y105.5Z-7.494
N13900X79.Z-10.401
N13910Y97.Z-11.9
N13920Y88.5F620
N13930X95.49
N13940Y105.5
N13950X79.
N13960Y97.
N13970G3X83.9Y97.I2.45J0.
N13980X74.Y97.I-4.95J0.
N13990G1Y83.5
N14000X100.132
N14010X100.304Y84.334
N14020X100.49Y85.165
N14030Y108.835
N14040X100.304Y109.666
N14050X100.132Y110.5
N14060X74.
N14070Y97.
N14080G3X78.9Y97.I2.45J0.
N14090X69.Y97.I-4.95J0.
N14100G1Y78.5
N14110X104.43
N14120G2X105.49Y84.575I44.757J-4.682
N14130G1Y109.425
N14140G2X104.43Y115.5I43.695J10.757
N14150G1X69.
N14160Y97.
N14170G3X73.9Y97.I2.45J0.
N14180X64.Y97.I-4.95J0.
N14190G1Y73.5
N14200X109.027
N14210X109.098Y74.835
N14220X109.214Y76.168
N14230X109.4Y77.951
N14240G2X110.49Y83.95I39.785J-4.133
N14250G1Y110.05
N14260G2X109.4Y116.049I38.695J10.132
N14270G1X109.214Y117.832
N14280X109.098Y119.165
N14290X109.027Y120.5
N14300X64.
N14310Y97.
N14320G3X68.9Y97.I2.45J0.
N14330X59.Y97.I-4.95J0.
N14340G1Y68.5
N14350X114.
N14360Y72.035
N14370X114.047Y73.845
N14380X114.188Y75.651
N14390X114.373Y77.434
N14400G2X115.49Y83.285I34.813J-3.616
N14410G1Y110.715
N14420G2X114.373Y116.566I33.696J9.467
N14430G1X114.188Y118.349
N14440X114.047Y120.155
N14450X114.Y121.965
N14460Y125.5
N14470X59.
N14480Y97.
N14490G3X63.9Y97.I2.45J0.
N14500X54.Y97.I-4.95J0.
N14510G1Y63.5
N14520X119.
N14530Y72.035
N14540X119.04Y73.587
N14550X119.161Y75.134
N14560X119.346Y76.918
N14570G2X120.49Y82.568I29.839J-3.1
N14580G1Y111.432
N14590G2X119.346Y117.082I28.695J8.75
N14600G1X119.161Y118.866
N14610X119.04Y120.413
N14620X119.Y121.965
N14630Y130.5
N14640X54.
N14650Y97.
N14660G3X58.9Y97.I2.45J0.
N14670X49.Y97.I-4.95J0.
N14680G1Y58.5
N14690X124.
N14700Y72.035
N14710X124.034Y73.328
N14720X124.134Y74.618
N14730X124.319Y76.401
N14740G2X125.358Y81.384I24.866J-2.583
N14750G1X125.49Y81.8
N14760Y112.208
N14770X125.417Y112.432
N14780G2X124.319Y117.599I23.768J7.75
N14790G1X124.134Y119.382
N14800X124.034Y120.672
N14810X124.Y121.965
N14820Y135.5
N14830X49.
N14840Y97.
N14850G3X53.9Y97.I2.45J0.
N14860X44.Y97.I-4.95J0.
N14870G1Y53.5
N14880X129.
N14890Y72.035
N14900X129.027Y73.069
N14910X129.107Y74.101
N14920X129.292Y75.884
N14930G2X130.123Y79.871I19.894J-2.066
N14940G1X130.49Y81.025
N14950Y113.003
N14960X130.171Y113.982
N14970G2X129.292Y118.116I19.016J6.2
N14980G1X129.107Y119.899
N14990X129.027Y120.931
N15000X129.Y121.965
N15010Y140.5
N15020X44.
N15030Y97.
N15040G3X48.9Y97.I2.45J0.
N15050X39.Y97.I-4.95J0.
N15060G1Y48.5
N15070X134.
N15080Y72.035
N15090X134.02Y72.811
N15100X134.08Y73.585
N15110X134.266Y75.368
N15120X134.501Y76.879
N15130X134.889Y78.358
N15140X135.455Y80.141
N15150X135.472Y80.195
N15160X135.49Y80.249
N15170Y113.797
N15180X134.924Y115.532
N15190X134.513Y117.065
N15200X134.266Y118.632
N15210X134.08Y120.415
N15220X134.02Y121.189
N15230X134.Y121.965
N15240Y145.5
N15250X39.
N15260Y97.
N15270G3X43.9Y97.I2.45J0.
N15280X34.Y97.I-4.95J0.
N15290G1Y43.5
N15300X139.
N15310Y72.035
N15320X139.014Y72.552
N15330X139.054Y73.068
N15340X139.239Y74.851
N15350X139.396Y75.858
N15360X139.654Y76.844
N15370X140.221Y78.628
N15380X140.348Y79.003
N15390X140.49Y79.372
N15400Y114.643
N15410X140.391Y114.907
N15420X140.3Y115.173
N15430X139.678Y117.082
N15440X139.404Y118.104
N15450X139.239Y119.149
N15460X139.054Y120.932
N15470X139.014Y121.448
N15480X139.Y121.965
N15490Y150.5
N15500X34.
N15510Y97.
N15520G3X38.9Y97.I2.45J0.
N15530X29.Y97.I-4.95J0.
N15540G1Y38.5
N15550X144.
N15560Y72.035
N15570X144.007Y72.293
N15580X144.027Y72.551
N15590X144.212Y74.335
N15600X144.291Y74.838
N15610X144.42Y75.331
N15620X144.986Y77.114
N15630X145.18Y77.626
N15640X145.429Y78.114
N15650X145.49Y78.219
N15660Y115.752
N15670X145.246Y116.226
N15680X145.054Y116.723
N15690X144.432Y118.632
N15700X144.295Y119.143
N15710X144.212Y119.665
N15720X144.027Y121.449
N15730X144.007Y121.707
N15740X144.Y121.965
N15750Y155.5
N15760X29.
N15770Y97.
N15780G3X33.9Y97.I2.45J0.
N15790X24.Y97.I-4.95J0.
N15800G1Y36.37
N15810X24.085Y34.238
N15820X24.298Y33.855
N15830X24.653Y33.611
N15840X26.764Y33.5
N15850X146.241
N15860X148.025Y33.546
N15870X148.536Y33.709
N15880X148.915Y34.239
N15890X149.Y36.37
N15900Y72.035
N15910X149.185Y73.818
N15920X149.752Y75.601
N15930X150.49Y76.871
N15940Y117.12
N15950X149.808Y118.273
N15960X149.185Y120.182
N15970X149.Y121.965
N15980Y157.63
N15990X148.916Y159.761
N16000X148.704Y160.143
N16010X148.351Y160.388
N16020X146.241Y160.5
N16030X26.764
N16040X24.653Y160.389
N16050X24.298Y160.145
N16060X24.085Y159.762
N16070X24.Y157.63
N16080Y97.
N16090G3X26.5Y95.964I1.464J0.
N16100G2X29.Y97.I2.5J-2.5
N16110G1X34.
N16120X39.
N16130X44.
N16140X49.
N16150X54.
N16160X59.
N16170X64.
N16180X69.
N16190X74.
N16200X79.
N16210G2X81.5Y95.964I0.J-3.536
N16220G3X84.Y97.I1.035J1.036
N16230G1Y100.5
N16240X90.49
N16250Y93.5
N16260X84.
N16270Y97.
N16280G3X81.5Y98.035I-1.465J0.
N16290G2X79.Y97.I-2.5J2.5
N16300G0Z10.
N16310Y103.736
N16320Z5.
N16330G1Y88.5Z2.314F209
N16340X95.49Z-0.593
N16350Y97.Z-2.092
N16360Y105.5Z-3.59
N16370X79.Z-6.497
N16380Y88.5Z-9.494
N16390X95.49Z-12.401
N16400Y97.Z-13.9
N16410Y105.5F620
N16420X79.
N16430Y88.5
N16440X95.49
N16450Y97.
N16460G3X90.59Y97.I-2.45J0.
N16470X100.49Y97.I4.95J0.
N16480G1Y108.835
N16490X100.304Y109.666
N16500X100.132Y110.5
N16510X74.
N16520Y83.5
N16530X100.132
N16540X100.304Y84.334
N16550X100.49Y85.165
N16560Y97.
N16570G3X95.59Y97.I-2.45J0.
N16580X105.49Y97.I4.95J0.
N16590G1Y109.425
N16600G2X104.43Y115.5I43.697J10.757
N16610G1X69.
N16620Y78.5
N16630X104.43
N16640G2X105.49Y84.575I44.755J-4.682
N16650G1Y97.
N16660G3X100.59Y97.I-2.45J0.
N16670X110.49Y97.I4.95J0.
N16680G1Y110.049
N16690G2X109.399Y116.051I38.696J10.133
N16700G1X109.214Y117.834
N16710X109.098Y119.165
N16720X109.027Y120.5
N16730X64.
N16740Y73.5
N16750X109.027
N16760X109.098Y74.834
N16770X109.214Y76.166
N16780X109.399Y77.949
N16790G2X110.49Y83.951I39.787J-4.131
N16800G1Y97.
N16810G3X105.59Y97.I-2.45J0.
N16820X115.49Y97.I4.95J0.
N16830G1Y110.715
N16840G2X114.373Y116.567I33.695J9.467
N16850G1X114.187Y118.351
N16860X114.047Y120.155
N16870X114.Y121.965
N16880Y125.5
N16890X59.
N16900Y68.5
N16910X114.
N16920Y72.035
N16930X114.047Y73.845
N16940X114.187Y75.649
N16950X114.373Y77.433
N16960G2X115.49Y83.285I34.812J-3.615
N16970G1Y97.
N16980G3X110.59Y97.I-2.45J0.
N16990X120.49Y97.I4.95J0.
N17000G1Y111.431
N17010G2X119.346Y117.084I28.696J8.751
N17020G1X119.161Y118.867
N17030X119.04Y120.414
N17040X119.Y121.965
N17050Y130.5
N17060X54.
N17070Y63.5
N17080X119.
N17090Y72.035
N17100X119.04Y73.586
N17110X119.161Y75.133
N17120X119.346Y76.916
N17130G2X120.49Y82.569I29.84J-3.098
N17140G1Y97.
N17150G3X115.59Y97.I-2.45J0.
N17160X125.49Y97.I4.95J0.
N17170G1Y112.208
N17180X125.417Y112.431
N17190G2X124.319Y117.6I23.767J7.751
N17200G1X124.134Y119.383
N17210X124.034Y120.673
N17220X124.Y121.965
N17230Y135.5
N17240X49.
N17250Y58.5
N17260X124.
N17270Y72.035
N17280X124.034Y73.327
N17290X124.134Y74.617
N17300X124.319Y76.4
N17310G2X125.358Y81.384I24.866J-2.582
N17320G1X125.49Y81.8
N17330Y97.
N17340G3X120.59Y97.I-2.45J0.
N17350X130.49Y97.I4.95J0.
N17360G1Y113.003
N17370X130.171Y113.981
N17380G2X129.292Y118.116I19.015J6.201
N17390G1X129.107Y119.9
N17400X129.027Y120.931
N17410X129.Y121.965
N17420Y140.5
N17430X44.
N17440Y53.5
N17450X129.
N17460Y72.035
N17470X129.027Y73.069
N17480X129.107Y74.1
N17490X129.292Y75.884
N17500G2X130.123Y79.871I19.893J-2.066
N17510G1X130.49Y81.026
N17520Y97.
N17530G3X125.59Y97.I-2.45J0.
N17540X135.49Y97.I4.95J0.
N17550G1Y113.797
N17560X134.924Y115.532
N17570X134.513Y117.065
N17580X134.266Y118.633
N17590X134.08Y120.416
N17600X134.02Y121.19
N17610X134.Y121.965
N17620Y145.5
N17630X39.
N17640Y48.5
N17650X134.
N17660Y72.035
N17670X134.02Y72.81
N17680X134.08Y73.584
N17690X134.266Y75.367
N17700X134.501Y76.878
N17710X134.889Y78.358
N17720X135.455Y80.141
N17730X135.472Y80.195
N17740X135.49Y80.249
N17750Y97.
N17760G3X130.59Y97.I-2.45J0.
N17770X140.49Y97.I4.95J0.
N17780G1Y114.643
N17790X140.392Y114.907
N17800X140.301Y115.173
N17810X139.678Y117.082
N17820X139.404Y118.104
N17830X139.239Y119.149
N17840X139.054Y120.933
N17850X139.014Y121.448
N17860X139.Y121.965
N17870Y150.5
N17880X34.
N17890Y43.5
N17900X139.
N17910Y72.035
N17920X139.014Y72.552
N17930X139.054Y73.067
N17940X139.239Y74.851
N17950X139.396Y75.858
N17960X139.654Y76.844
N17970X140.221Y78.628
N17980X140.348Y79.003
N17990X140.49Y79.372
N18000Y97.
N18010G3X135.59Y97.I-2.45J0.
N18020X145.49Y97.I4.95J0.
N18030G1Y115.752
N18040X145.246Y116.226
N18050X145.054Y116.723
N18060X144.432Y118.632
N18070X144.295Y119.143
N18080X144.212Y119.666
N18090X144.027Y121.449
N18100X144.007Y121.707
N18110X144.Y121.965
N18120Y155.5
N18130X29.
N18140Y38.5
N18150X144.
N18160Y72.035
N18170X144.007Y72.293
N18180X144.027Y72.551
N18190X144.212Y74.334
N18200X144.291Y74.838
N18210X144.42Y75.331
N18220X144.986Y77.114
N18230X145.18Y77.626
N18240X145.429Y78.114
N18250X145.49Y78.219
N18260Y97.
N18270G3X140.59Y97.I-2.45J0.
N18280X150.49Y97.I4.95J0.
N18290G1Y117.12
N18300X149.808Y118.273
N18310X149.185Y120.182
N18320X149.Y121.965
N18330Y157.63
N18340X148.916Y159.761
N18350X148.704Y160.143
N18360X148.351Y160.388
N18370X146.241Y160.5
N18380X26.764
N18390X24.653Y160.389
N18400X24.298Y160.145
N18410X24.085Y159.762
N18420X24.Y157.63
N18430Y36.37
N18440X24.085Y34.238
N18450X24.298Y33.855
N18460X24.653Y33.611
N18470X26.764Y33.5
N18480X146.241
N18490X148.025Y33.546
N18500X148.536Y33.709
N18510X148.915Y34.239
N18520X149.Y36.37
N18530Y72.035
N18540X149.185Y73.818
N18550X149.752Y75.601
N18560X150.49Y76.871
N18570Y97.
N18580G3X147.99Y98.035I-1.464J0.
N18590G2X145.49Y97.I-2.5J2.5
N18600G1X140.49
N18610X135.49
N18620X130.49
N18630X125.49
N18640X120.49
N18650X115.49
N18660X110.49
N18670X105.49
N18680X100.49
N18690X95.49
N18700G2X92.99Y98.035I0.J3.535
N18710G3X90.49Y97.I-1.036J-1.035
N18720G1Y93.5
N18730X84.
N18740Y100.5
N18750X90.49
N18760Y97.
N18770G3X92.99Y95.964I1.464J0.
N18780G2X95.49Y97.I2.5J-2.5
N18790G0Z10.
N18800X92.893Y105.5
N18810Z5.
N18820G1X79.Z2.551F209
N18830Y88.5Z-0.446
N18840X94.Z-3.091
N18850Y97.Z-4.589
N18860Y105.5Z-6.088
N18870X79.Z-8.732
N18880Y88.5Z-11.729
N18890X94.Z-14.374
N18900Y97.Z-15.872
N18910Y105.5F620
N18920X79.
N18930Y88.5
N18940X94.
N18950Y97.
N18960G3X89.1Y97.I-2.45J0.
N18970X99.Y97.I4.95J0.
N18980G1Y110.5
N18990X74.
N19000Y83.5
N19010X99.
N19020Y97.
N19030G3X94.1Y97.I-2.45J0.
N19040X104.Y97.I4.95J0.
N19050G1Y115.5
N19060X69.
N19070Y78.5
N19080X104.
N19090Y97.
N19100G3X99.1Y97.I-2.45J0.
N19110X109.Y97.I4.95J0.
N19120G1Y120.5
N19130X64.
N19140Y73.5
N19150X109.
N19160Y97.
N19170G3X104.1Y97.I-2.45J0.
N19180X114.Y97.I4.95J0.
N19190G1Y125.5
N19200X59.
N19210Y68.5
N19220X114.
N19230Y97.
N19240G3X109.1Y97.I-2.45J0.
N19250X119.Y97.I4.95J0.
N19260G1Y130.5
N19270X54.
N19280Y63.5
N19290X119.
N19300Y97.
N19310G3X114.1Y97.I-2.45J0.
N19320X124.Y97.I4.95J0.
N19330G1Y135.5
N19340X49.
N19350Y58.5
N19360X124.
N19370Y97.
N19380G3X119.1Y97.I-2.45J0.
N19390X129.Y97.I4.95J0.
N19400G1Y140.5
N19410X44.
N19420Y53.5
N19430X129.
N19440Y97.
N19450G3X124.1Y97.I-2.45J0.
N19460X134.Y97.I4.95J0.
N19470G1Y145.5
N19480X39.
N19490Y48.5
N19500X134.
N19510Y97.
N19520G3X129.1Y97.I-2.45J0.
N19530X139.Y97.I4.95J0.
N19540G1Y150.5
N19550X34.
N19560Y43.5
N19570X139.
N19580Y97.
N19590G3X134.1Y97.I-2.45J0.
N19600X144.Y97.I4.95J0.
N19610G1Y155.5
N19620X29.
N19630Y38.5
N19640X144.
N19650Y97.
N19660G3X139.1Y97.I-2.45J0.
N19670X149.Y97.I4.95J0.
N19680G1Y157.63
N19690X148.916Y159.761
N19700X148.704Y160.143
N19710X148.351Y160.388
N19720X146.241Y160.5
N19730X26.764
N19740X24.653Y160.389
N19750X24.298Y160.145
N19760X24.085Y159.762
N19770X24.Y157.63
N19780Y36.37
N19790X24.085Y34.238
N19800X24.298Y33.855
N19810X24.653Y33.611
N19820X26.764Y33.5
N19830X146.241
N19840X148.025Y33.546
N19850X148.536Y33.709
N19860X148.537
N19870X148.864Y34.167
N19880X148.922Y34.409
N19890X149.Y36.367
N19900Y36.37
N19910Y97.
N19920G3X146.5Y98.035I-1.464J0.
N19930G2X144.Y97.I-2.5J2.5
N19940G1X139.
N19950X134.
N19960X129.
N19970X124.
N19980X119.
N19990X114.
N20000X109.
N20010X104.
N20020X99.
N20030X94.
N20040G2X91.5Y98.035I0.J3.535
N20050G3X89.Y97.I-1.035J-1.035
N20060G1Y93.5
N20070X84.
N20080Y100.5
N20090X89.
N20100Y97.
N20110G3X91.5Y95.964I1.465J0.
N20120G2X94.Y97.I2.5J-2.5
N20130G0Z10.
N20140Y95.419
N20150Z5.
N20160G1Y97.Z4.721F209
N20170Y105.5Z3.223
N20180X79.Z0.578
N20190Y88.5Z-2.419
N20200X94.Z-5.063
N20210Y97.Z-6.562
N20220Y105.5Z-8.06
N20230X79.Z-10.704
N20240Y88.5Z-13.701
N20250X94.Z-16.346
N20260Y97.Z-17.844
N20270Y105.5F620
N20280X79.
N20290Y88.5
N20300X94.
N20310Y97.
N20320G3X89.1Y97.I-2.45J0.
N20330X99.Y97.I4.95J0.
N20340G1Y110.5
N20350X74.
N20360Y83.5
N20370X99.
N20380Y97.
N20390G3X94.1Y97.I-2.45J0.
N20400X104.Y97.I4.95J0.
N20410G1Y115.5
N20420X69.
N20430Y78.5
N20440X104.
N20450Y97.
N20460G3X99.1Y97.I-2.45J0.
N20470X109.Y97.I4.95J0.
N20480G1Y120.5
N20490X64.
N20500Y73.5
N20510X109.
N20520Y97.
N20530G3X104.1Y97.I-2.45J0.
N20540X114.Y97.I4.95J0.
N20550G1Y125.5
N20560X59.
N20570Y68.5
N20580X114.
N20590Y97.
N20600G3X109.1Y97.I-2.45J0.
N20610X119.Y97.I4.95J0.
N20620G1Y130.5
N20630X54.
N20640Y63.5
N20650X119.
N20660Y97.
N20670G3X114.1Y97.I-2.45J0.
N20680X124.Y97.I4.95J0.
N20690G1Y135.5
N20700X49.
N20710Y58.5
N20720X124.
N20730Y97.
N20740G3X119.1Y97.I-2.45J0.
N20750X129.Y97.I4.95J0.
N20760G1Y140.5
N20770X44.
N20780Y53.5
N20790X129.
N20800Y97.
N20810G3X124.1Y97.I-2.45J0.
N20820X134.Y97.I4.95J0.
N20830G1Y145.5
N20840X39.
N20850Y48.5
N20860X134.
N20870Y97.
N20880G3X129.1Y97.I-2.45J0.
N20890X139.Y97.I4.95J0.
N20900G1Y150.5
N20910X34.
N20920Y43.5
N20930X139.
N20940Y97.
N20950G3X134.1Y97.I-2.45J0.
N20960X144.Y97.I4.95J0.
N20970G1Y155.5
N20980X29.
N20990Y38.5
N21000X144.
N21010Y97.
N21020G3X139.1Y97.I-2.45J0.
N21030X149.Y97.I4.95J0.
N21040G1Y157.63
N21050X148.916Y159.761
N21060X148.704Y160.143
N21070X148.351Y160.388
N21080X146.241Y160.5
N21090X26.764
N21100X24.653Y160.389
N21110X24.298Y160.145
N21120X24.085Y159.762
N21130X24.Y157.63
N21140Y36.37
N21150X24.085Y34.238
N21160X24.298Y33.855
N21170X24.653Y33.611
N21180X26.764Y33.5
N21190X146.241
N21200X148.025Y33.546
N21210X148.536Y33.709
N21220X148.537Y33.71
N21230X148.864Y34.167
N21240X148.922Y34.409
N21250X149.Y36.363
N21260Y36.37
N21270Y97.
N21280G3X146.5Y98.035I-1.464J0.
N21290G2X144.Y97.I-2.5J2.5
N21300G1X139.
N21310X134.
N21320X129.
N21330X124.
N21340X119.
N21350X114.
N21360X109.
N21370X104.
N21380X99.
N21390X94.
N21400G2X91.5Y98.035I0.J3.535
N21410G3X89.Y97.I-1.035J-1.035
N21420G1Y93.5
N21430X84.
N21440Y100.5
N21450X89.
N21460Y97.
N21470G3X91.5Y95.964I1.465J0.
N21480G2X94.Y97.I2.5J-2.5
N21490G0Z10.
N21500X89.732Y88.5
N21510Z5.
N21520G1X94.Z4.248F209
N21530Y97.Z2.749
N21540Y105.5Z1.251
N21550X79.Z-1.394
N21560Y88.5Z-4.391
N21570X94.Z-7.035
N21580Y97.Z-8.534
N21590Y105.5Z-10.032
N21600X79.Z-12.677
N21610Y88.5Z-15.674
N21620X94.Z-18.318
N21630Y97.Z-19.817
N21640Y105.5F620
N21650X79.
N21660Y88.5
N21670X94.
N21680Y97.
N21690G3X89.1Y97.I-2.45J0.
N21700X99.Y97.I4.95J0.
N21710G1Y110.5
N21720X74.
N21730Y83.5
N21740X99.
N21750Y97.
N21760G3X94.1Y97.I-2.45J0.
N21770X104.Y97.I4.95J0.
N21780G1Y115.5
N21790X69.
N21800Y78.5
N21810X104.
N21820Y97.
N21830G3X99.1Y97.I-2.45J0.
N21840X109.Y97.I4.95J0.
N21850G1Y120.5
N21860X64.
N21870Y73.5
N21880X109.
N21890Y97.
N21900G3X104.1Y97.I-2.45J0.
N21910X114.Y97.I4.95J0.
N21920G1Y125.5
N21930X59.
N21940Y68.5
N21950X114.
N21960Y97.
N21970G3X109.1Y97.I-2.45J0.
N21980X119.Y97.I4.95J0.
N21990G1Y130.5
N22000X54.
N22010Y63.5
N22020X119.
N22030Y97.
N22040G3X114.1Y97.I-2.45J0.
N22050X124.Y97.I4.95J0.
N22060G1Y135.5
N22070X49.
N22080Y58.5
N22090X124.
N22100Y97.
N22110G3X119.1Y97.I-2.45J0.
N22120X129.Y97.I4.95J0.
N22130G1Y140.5
N22140X44.
N22150Y53.5
N22160X129.
N22170Y97.
N22180G3X124.1Y97.I-2.45J0.
N22190X134.Y97.I4.95J0.
N22200G1Y145.5
N22210X39.
N22220Y48.5
N22230X134.
N22240Y97.
N22250G3X129.1Y97.I-2.45J0.
N22260X139.Y97.I4.95J0.
N22270G1Y150.5
N22280X34.
N22290Y43.5
N22300X139.
N22310Y97.
N22320G3X134.1Y97.I-2.45J0.
N22330X144.Y97.I4.95J0.
N22340G1Y155.5
N22350X29.
N22360Y38.5
N22370X144.
N22380Y97.
N22390G3X139.1Y97.I-2.45J0.
N22400X149.Y97.I4.95J0.
N22410G1Y157.63
N22420X148.915Y159.761
N22430X148.704Y160.143
N22440X148.351Y160.388
N22450X146.241Y160.5
N22460X26.764
N22470X24.653Y160.389
N22480X24.298Y160.145
N22490X24.085Y159.762
N22500X24.Y157.63
N22510Y36.37
N22520X24.085Y34.238
N22530X24.298Y33.855
N22540X24.653Y33.611
N22550X26.764Y33.5
N22560X146.241
N22570X148.025Y33.546
N22580X148.536Y33.709
N22590X148.537Y33.71
N22600X148.864Y34.167
N22610X148.922Y34.409
N22620X149.Y36.359
N22630Y36.37
N22640Y97.
N22650G3X146.5Y98.035I-1.464J0.
N22660G2X144.Y97.I-2.5J2.5
N22670G1X139.
N22680X134.
N22690X129.
N22700X124.
N22710X119.
N22720X114.
N22730X109.
N22740X104.
N22750X99.
N22760X94.
N22770G2X91.5Y98.035I0.J3.535
N22780G3X89.Y97.I-1.035J-1.035
N22790G1Y93.5
N22800X84.
N22810Y100.5
N22820X89.
N22830Y97.
N22840G3X91.5Y95.964I1.465J0.
N22850G2X94.Y97.I2.5J-2.5
N22860G0Z10.
N22870X79.Y88.955
N22880Z5.
N22890G1Y88.5Z4.92F209
N22900X94.Z2.275
N22910Y97.Z0.777
N22920Y105.5Z-0.722
N22930X79.Z-3.366
N22940Y88.5Z-6.363
N22950X94.Z-9.008
N22960Y97.Z-10.506
N22970Y105.5Z-12.005
N22980X79.Z-14.649
N22990Y88.5Z-17.646
N23000X94.Z-20.29
N23010Y97.Z-21.789
N23020Y105.5F620
N23030X79.
N23040Y88.5
N23050X94.
N23060Y97.
N23070G3X89.1Y97.I-2.45J0.
N23080X99.Y97.I4.95J0.
N23090G1Y110.5
N23100X74.
N23110Y83.5
N23120X99.
N23130Y97.
N23140G3X94.1Y97.I-2.45J0.
N23150X104.Y97.I4.95J0.
N23160G1Y115.5
N23170X69.
N23180Y78.5
N23190X104.
N23200Y97.
N23210G3X99.1Y97.I-2.45J0.
N23220X109.Y97.I4.95J0.
N23230G1Y120.5
N23240X64.
N23250Y73.5
N23260X109.
N23270Y97.
N23280G3X104.1Y97.I-2.45J0.
N23290X114.Y97.I4.95J0.
N23300G1Y125.5
N23310X59.
N23320Y68.5
N23330X114.
N23340Y97.
N23350G3X109.1Y97.I-2.45J0.
N23360X119.Y97.I4.95J0.
N23370G1Y130.5
N23380X54.
N23390Y63.5
N23400X119.
N23410Y97.
N23420G3X114.1Y97.I-2.45J0.
N23430X124.Y97.I4.95J0.
N23440G1Y135.5
N23450X49.
N23460Y58.5
N23470X124.
N23480Y97.
N23490G3X119.1Y97.I-2.45J0.
N23500X129.Y97.I4.95J0.
N23510G1Y140.5
N23520X44.
N23530Y53.5
N23540X129.
N23550Y97.
N23560G3X124.1Y97.I-2.45J0.
N23570X134.Y97.I4.95J0.
N23580G1Y145.5
N23590X39.
N23600Y48.5
N23610X134.
N23620Y97.
N23630G3X129.1Y97.I-2.45J0.
N23640X139.Y97.I4.95J0.
N23650G1Y150.5
N23660X34.
N23670Y43.5
N23680X139.
N23690Y97.
N23700G3X134.1Y97.I-2.45J0.
N23710X144.Y97.I4.95J0.
N23720G1Y155.5
N23730X29.
N23740Y38.5
N23750X144.
N23760Y97.
N23770G3X139.1Y97.I-2.45J0.
N23780X149.Y97.I4.95J0.
N23790G1Y157.63
N23800X148.915Y159.761
N23810X148.704Y160.143
N23820X148.351Y160.388
N23830X146.241Y160.5
N23840X26.764
N23850X24.653Y160.389
N23860X24.298Y160.145
N23870X24.085Y159.762
N23880X24.Y157.63
N23890Y36.37
N23900X24.085Y34.238
N23910X24.298Y33.855
N23920X24.653Y33.611
N23930X26.764Y33.5
N23940X146.241
N23950X148.025Y33.546
N23960X148.536Y33.709
N23970X148.538Y33.71
N23980X148.864Y34.167
N23990X148.922Y34.41
N24000X149.Y36.355
N24010Y36.37
N24020Y97.
N24030G3X146.5Y98.035I-1.464J0.
N24040G2X144.Y97.I-2.5J2.5
N24050G1X139.
N24060X134.
N24070X129.
N24080X124.
N24090X119.
N24100X114.
N24110X109.
N24120X104.
N24130X99.
N24140X94.
N24150G2X91.5Y98.035I0.J3.535
N24160G3X89.Y97.I-1.035J-1.035
N24170G1Y93.5
N24180X84.
N24190Y100.5
N24200X89.
N24210Y97.
N24220G3X91.5Y95.964I1.465J0.
N24230G2X94.Y97.I2.5J-2.5
N24240G0Z10.
N24250X79.Y100.142
N24260Z5.
N24270G1Y88.5Z2.948F209
N24280X94.Z0.303
N24290Y97.Z-1.195
N24300Y105.5Z-2.694
N24310X79.Z-5.338
N24320Y88.5Z-8.335
N24330X94.Z-10.98
N24340Y97.Z-12.478
N24350Y105.5Z-13.977
N24360X79.Z-16.621
N24370Y88.5Z-19.618
N24380X94.Z-22.263
N24390Y97.Z-23.761
N24400Y105.5F620
N24410X79.
N24420Y88.5
N24430X94.
N24440Y97.
N24450G3X89.1Y97.I-2.45J0.
N24460X99.Y97.I4.95J0.
N24470G1Y110.5
N24480X74.
N24490Y83.5
N24500X99.
N24510Y97.
N24520G3X94.1Y97.I-2.45J0.
N24530X104.Y97.I4.95J0.
N24540G1Y115.5
N24550X69.
N24560Y78.5
N24570X104.
N24580Y97.
N24590G3X99.1Y97.I-2.45J0.
N24600X109.Y97.I4.95J0.
N24610G1Y120.5
N24620X64.
N24630Y73.5
N24640X109.
N24650Y97.
N24660G3X104.1Y97.I-2.45J0.
N24670X114.Y97.I4.95J0.
N24680G1Y125.5
N24690X59.
N24700Y68.5
N24710X114.
N24720Y97.
N24730G3X109.1Y97.I-2.45J0.
N24740X119.Y97.I4.95J0.
N24750G1Y130.5
N24760X54.
N24770Y63.5
N24780X119.
N24790Y97.
N24800G3X114.1Y97.I-2.45J0.
N24810X124.Y97.I4.95J0.
N24820G1Y135.5
N24830X49.
N24840Y58.5
N24850X124.
N24860Y97.
N24870G3X119.1Y97.I-2.45J0.
N24880X129.Y97.I4.95J0.
N24890G1Y140.5
N24900X44.
N24910Y53.5
N24920X129.
N24930Y97.
N24940G3X124.1Y97.I-2.45J0.
N24950X134.Y97.I4.95J0.
N24960G1Y145.5
N24970X39.
N24980Y48.5
N24990X134.
N25000Y97.
N25010G3X129.1Y97.I-2.45J0.
N25020X139.Y97.I4.95J0.
N25030G1Y150.5
N25040X34.
N25050Y43.5
N25060X139.
N25070Y97.
N25080G3X134.1Y97.I-2.45J0.
N25090X144.Y97.I4.95J0.
N25100G1Y155.5
N25110X29.
N25120Y38.5
N25130X144.
N25140Y97.
N25150G3X139.1Y97.I-2.45J0.
N25160X149.Y97.I4.95J0.
N25170G1Y157.63
N25180X148.915Y159.761
N25190X148.704Y160.143
N25200X148.351Y160.388
N25210X146.241Y160.5
N25220X26.764
N25230X24.653Y160.389
N25240X24.298Y160.145
N25250X24.085Y159.762
N25260X24.Y157.63
N25270Y36.37
N25280X24.085Y34.238
N25290X24.298Y33.855
N25300X24.653Y33.611
N25310X26.764Y33.5
N25320X146.241
N25330X148.025Y33.546
N25340X148.537Y33.709
N25350X148.538Y33.711
N25360X148.864Y34.167
N25370X148.923Y34.41
N25380X149.Y36.352
N25390Y36.37
N25400Y97.
N25410G3X146.5Y98.035I-1.464J0.
N25420G2X144.Y97.I-2.5J2.5
N25430G1X139.
N25440X134.
N25450X129.
N25460X124.
N25470X119.
N25480X114.
N25490X109.
N25500X104.
N25510X99.
N25520X94.
N25530G2X91.5Y98.035I0.J3.535
N25540G3X89.Y97.I-1.036J-1.035
N25550G1Y93.5
N25560X84.
N25570Y100.5
N25580X89.
N25590Y97.
N25600G3X91.5Y95.964I1.464J0.
N25610G2X94.Y97.I2.5J-2.5
N25620G0Z10.
N25630X84.83Y105.5
N25640Z5.
N25650G1X79.Z3.972F209
N25660Y88.5Z0.975
N25670X94.Z-1.669
N25680Y97.Z-3.168
N25690Y105.5Z-4.666
N25700X79.Z-7.311
N25710Y88.5Z-10.308
N25720X94.Z-12.952
N25730Y97.Z-14.451
N25740Y105.5Z-15.949
N25750X79.Z-18.593
N25760Y88.5Z-21.59
N25770X94.Z-24.235
N25780Y97.Z-25.733
N25790Y105.5F620
N25800X79.
N25810Y88.5
N25820X94.
N25830Y97.
N25840G3X89.1Y97.I-2.45J0.
N25850X99.Y97.I4.95J0.
N25860G1Y110.5
N25870X74.
N25880Y83.5
N25890X99.
N25900Y97.
N25910G3X94.1Y97.I-2.45J0.
N25920X104.Y97.I4.95J0.
N25930G1Y115.5
N25940X69.
N25950Y78.5
N25960X104.
N25970Y97.
N25980G3X99.1Y97.I-2.45J0.
N25990X109.Y97.I4.95J0.
N26000G1Y120.5
N26010X64.
N26020Y73.5
N26030X109.
N26040Y97.
N26050G3X104.1Y97.I-2.45J0.
N26060X114.Y97.I4.95J0.
N26070G1Y125.5
N26080X59.
N26090Y68.5
N26100X114.
N26110Y97.
N26120G3X109.1Y97.I-2.45J0.
N26130X119.Y97.I4.95J0.
N26140G1Y130.5
N26150X54.
N26160Y63.5
N26170X119.
N26180Y97.
N26190G3X114.1Y97.I-2.45J0.
N26200X124.Y97.I4.95J0.
N26210G1Y135.5
N26220X49.
N26230Y58.5
N26240X124.
N26250Y97.
N26260G3X119.1Y97.I-2.45J0.
N26270X129.Y97.I4.95J0.
N26280G1Y140.5
N26290X44.
N26300Y53.5
N26310X129.
N26320Y97.
N26330G3X124.1Y97.I-2.45J0.
N26340X134.Y97.I4.95J0.
N26350G1Y145.5
N26360X39.
N26370Y48.5
N26380X134.
N26390Y97.
N26400G3X129.1Y97.I-2.45J0.
N26410X139.Y97.I4.95J0.
N26420G1Y150.5
N26430X34.
N26440Y43.5
N26450X139.
N26460Y97.
N26470G3X134.1Y97.I-2.45J0.
N26480X144.Y97.I4.95J0.
N26490G1Y155.5
N26500X29.
N26510Y38.5
N26520X144.
N26530Y97.
N26540G3X139.1Y97.I-2.45J0.
N26550X149.Y97.I4.95J0.
N26560G1Y157.63
N26570X148.915Y159.761
N26580X148.704Y160.143
N26590X148.351Y160.388
N26600X146.241Y160.5
N26610X26.764
N26620X24.653Y160.389
N26630X24.298Y160.145
N26640X24.085Y159.762
N26650X24.Y157.63
N26660Y36.37
N26670X24.085Y34.238
N26680X24.298Y33.855
N26690X24.653Y33.611
N26700X26.764Y33.5
N26710X146.241
N26720X148.025Y33.546
N26730X148.537Y33.709
N26740X148.538Y33.711
N26750X148.864Y34.166
N26760X148.923Y34.41
N26770X149.Y36.348
N26780Y36.37
N26790Y97.
N26800G3X146.5Y98.035I-1.464J0.
N26810G2X144.Y97.I-2.5J2.5
N26820G1X139.
N26830X134.
N26840X129.
N26850X124.
N26860X119.
N26870X114.
N26880X109.
N26890X104.
N26900X99.
N26910X94.
N26920G2X91.5Y98.035I0.J3.535
N26930G3X89.Y97.I-1.036J-1.035
N26940G1Y93.5
N26950X84.
N26960Y100.5
N26970X89.
N26980Y97.
N26990G3X91.5Y95.964I1.464J0.
N27000G2X94.Y97.I2.5J-2.5
N27010G0Z10.
N27020Y103.483
N27030Z5.
N27040G1Y105.5Z4.644F209
N27050X79.Z2.
N27060Y88.5Z-0.997
N27070X94.Z-3.641
N27080Y97.Z-5.14
N27090Y105.5Z-6.638
N27100X79.Z-9.283
N27110Y88.5Z-12.28
N27120X94.Z-14.924
N27130Y97.Z-16.423
N27140Y105.5Z-17.921
N27150X79.Z-20.566
N27160Y88.5Z-23.563
N27170X94.Z-26.207
N27180Y97.Z-27.706
N27190Y105.5F620
N27200X79.
N27210Y88.5
N27220X94.
N27230Y97.
N27240G3X89.1Y97.I-2.45J0.
N27250X99.Y97.I4.95J0.
N27260G1Y110.5
N27270X74.
N27280Y83.5
N27290X99.
N27300Y97.
N27310G3X94.1Y97.I-2.45J0.
N27320X104.Y97.I4.95J0.
N27330G1Y115.5
N27340X69.
N27350Y78.5
N27360X104.
N27370Y97.
N27380G3X99.1Y97.I-2.45J0.
N27390X109.Y97.I4.95J0.
N27400G1Y120.5
N27410X64.
N27420Y73.5
N27430X109.
N27440Y97.
N27450G3X104.1Y97.I-2.45J0.
N27460X114.Y97.I4.95J0.
N27470G1Y125.5
N27480X59.
N27490Y68.5
N27500X114.
N27510Y97.
N27520G3X109.1Y97.I-2.45J0.
N27530X119.Y97.I4.95J0.
N27540G1Y130.5
N27550X54.
N27560Y63.5
N27570X119.
N27580Y97.
N27590G3X114.1Y97.I-2.45J0.
N27600X124.Y97.I4.95J0.
N27610G1Y135.5
N27620X49.
N27630Y58.5
N27640X124.
N27650Y97.
N27660G3X119.1Y97.I-2.45J0.
N27670X129.Y97.I4.95J0.
N27680G1Y140.5
N27690X44.
N27700Y53.5
N27710X129.
N27720Y97.
N27730G3X124.1Y97.I-2.45J0.
N27740X134.Y97.I4.95J0.
N27750G1Y145.5
N27760X39.
N27770Y48.5
N27780X134.
N27790Y97.
N27800G3X129.1Y97.I-2.45J0.
N27810X139.Y97.I4.95J0.
N27820G1Y150.5
N27830X34.
N27840Y43.5
N27850X139.
N27860Y97.
N27870G3X134.1Y97.I-2.45J0.
N27880X144.Y97.I4.95J0.
N27890G1Y155.5
N27900X29.
N27910Y38.5
N27920X144.
N27930Y97.
N27940G3X139.1Y97.I-2.45J0.
N27950X149.Y97.I4.95J0.
N27960G1Y157.63
N27970X148.915Y159.761
N27980X148.704Y160.143
N27990X148.351Y160.388
N28000X146.241Y160.5
N28010X26.764
N28020X24.653Y160.389
N28030X24.298Y160.145
N28040X24.085Y159.762
N28050X24.Y157.63
N28060Y36.37
N28070X24.085Y34.238
N28080X24.298Y33.855
N28090X24.653Y33.611
N28100X26.764Y33.5
N28110X146.241
N28120X148.025Y33.546
N28130X148.537Y33.709
N28140X148.539Y33.711
N28150X148.864Y34.166
N28160X148.923Y34.411
N28170X148.999Y36.345
N28180X149.Y36.37
N28190Y97.
N28200G3X146.5Y98.035I-1.464J0.
N28210G2X144.Y97.I-2.5J2.5
N28220G1X139.
N28230X134.
N28240X129.
N28250X124.
N28260X119.
N28270X114.
N28280X109.
N28290X104.
N28300X99.
N28310X94.
N28320G2X91.5Y98.035I0.J3.536
N28330G3X89.Y97.I-1.036J-1.035
N28340G1Y93.5
N28350X84.
N28360Y100.5
N28370X89.
N28380Y97.
N28390G3X91.5Y95.964I1.464J0.
N28400G2X94.Y97.I2.5J-2.5
N28410G0Z10.
N28420Y92.295
N28430Z5.
N28440G1Y97.Z4.171F209
N28450Y105.5Z2.672
N28460X79.Z0.028
N28470Y88.5Z-2.969
N28480X94.Z-5.614
N28490Y97.Z-7.112
N28500Y105.5Z-8.611
N28510X79.Z-11.255
N28520Y88.5Z-14.252
N28530X94.Z-16.896
N28540Y97.Z-18.395
N28550Y105.5Z-19.893
N28560X79.Z-22.538
N28570Y88.5Z-25.535
N28580X94.Z-28.179
N28590Y97.Z-29.678
N28600Y105.5F620
N28610X79.
N28620Y88.5
N28630X94.
N28640Y97.
N28650G3X89.1Y97.I-2.45J0.
N28660X99.Y97.I4.95J0.
N28670G1Y110.5
N28680X74.
N28690Y83.5
N28700X99.
N28710Y97.
N28720G3X94.1Y97.I-2.45J0.
N28730X104.Y97.I4.95J0.
N28740G1Y115.5
N28750X69.
N28760Y78.5
N28770X104.
N28780Y97.
N28790G3X99.1Y97.I-2.45J0.
N28800X109.Y97.I4.95J0.
N28810G1Y120.5
N28820X64.
N28830Y73.5
N28840X109.
N28850Y97.
N28860G3X104.1Y97.I-2.45J0.
N28870X114.Y97.I4.95J0.
N28880G1Y125.5
N28890X59.
N28900Y68.5
N28910X114.
N28920Y97.
N28930G3X109.1Y97.I-2.45J0.
N28940X119.Y97.I4.95J0.
N28950G1Y130.5
N28960X54.
N28970Y63.5
N28980X119.
N28990Y97.
N29000G3X114.1Y97.I-2.45J0.
N29010X124.Y97.I4.95J0.
N29020G1Y135.5
N29030X49.
N29040Y58.5
N29050X124.
N29060Y97.
N29070G3X119.1Y97.I-2.45J0.
N29080X129.Y97.I4.95J0.
N29090G1Y140.5
N29100X44.
N29110Y53.5
N29120X129.
N29130Y97.
N29140G3X124.1Y97.I-2.45J0.
N29150X134.Y97.I4.95J0.
N29160G1Y145.5
N29170X39.
N29180Y48.5
N29190X134.
N29200Y97.
N29210G3X129.1Y97.I-2.45J0.
N29220X139.Y97.I4.95J0.
N29230G1Y150.5
N29240X34.
N29250Y43.5
N29260X139.
N29270Y97.
N29280G3X134.1Y97.I-2.45J0.
N29290X144.Y97.I4.95J0.
N29300G1Y155.5
N29310X29.
N29320Y38.5
N29330X144.
N29340Y97.
N29350G3X139.1Y97.I-2.45J0.
N29360X149.Y97.I4.95J0.
N29370G1Y157.63
N29380X148.915Y159.761
N29390X148.704Y160.143
N29400X148.351Y160.388
N29410X146.241Y160.5
N29420X26.764
N29430X24.653Y160.389
N29440X24.298Y160.145
N29450X24.085Y159.762
N29460X24.Y157.63
N29470Y36.37
N29480X24.085Y34.238
N29490X24.298Y33.855
N29500X24.653Y33.611
N29510X26.764Y33.5
N29520X146.241
N29530X148.025Y33.546
N29540X148.537Y33.709
N29550X148.539Y33.712
N29560X148.864Y34.166
N29570X148.923Y34.411
N29580X148.999Y36.341
N29590X149.Y36.37
N29600Y97.
N29610G3X146.5Y98.035I-1.465J0.
N29620G2X144.Y97.I-2.5J2.5
N29630G1X139.
N29640X134.
N29650X129.
N29660X124.
N29670X119.
N29680X114.
N29690X109.
N29700X104.
N29710X99.
N29720X94.
N29730G2X91.5Y98.035I0.J3.535
N29740G3X89.Y97.I-1.036J-1.035
N29750G1Y93.5
N29760X84.
N29770Y100.5
N29780X89.
N29790Y97.
N29800G3X91.5Y95.964I1.464J0.
N29810G2X94.Y97.I2.5J-2.5
N29820G0Z10.
N29830X86.608Y88.5
N29840Z5.
N29850G1X94.Z3.697F209
N29860Y97.Z2.198
N29870Y105.5Z0.7
N29880X79.Z-1.945
N29890Y88.5Z-4.942
N29900X94.Z-7.586
N29910Y97.Z-9.084
N29920Y105.5Z-10.583
N29930X79.Z-13.227
N29940Y88.5Z-16.224
N29950X94.Z-18.869
N29960Y97.Z-20.367
N29970Y105.5Z-21.866
N29980X79.Z-24.51
N29990Y88.5Z-27.507
N30000X94.Z-30.152
N30010Y97.Z-31.65
N30020Y105.5F620
N30030X79.
N30040Y88.5
N30050X94.
N30060Y97.
N30070G3X89.1Y97.I-2.45J0.
N30080X99.Y97.I4.95J0.
N30090G1Y110.5
N30100X74.
N30110Y83.5
N30120X99.
N30130Y97.
N30140G3X94.1Y97.I-2.45J0.
N30150X104.Y97.I4.95J0.
N30160G1Y115.5
N30170X69.
N30180Y78.5
N30190X104.
N30200Y97.
N30210G3X99.1Y97.I-2.45J0.
N30220X109.Y97.I4.95J0.
N30230G1Y120.5
N30240X64.
N30250Y73.5
N30260X109.
N30270Y97.
N30280G3X104.1Y97.I-2.45J0.
N30290X114.Y97.I4.95J0.
N30300G1Y125.5
N30310X59.
N30320Y68.5
N30330X114.
N30340Y97.
N30350G3X109.1Y97.I-2.45J0.
N30360X119.Y97.I4.95J0.
N30370G1Y130.5
N30380X54.
N30390Y63.5
N30400X119.
N30410Y97.
N30420G3X114.1Y97.I-2.45J0.
N30430X124.Y97.I4.95J0.
N30440G1Y135.5
N30450X49.
N30460Y58.5
N30470X124.
N30480Y97.
N30490G3X119.1Y97.I-2.45J0.
N30500X129.Y97.I4.95J0.
N30510G1Y140.5
N30520X44.
N30530Y53.5
N30540X129.
N30550Y97.
N30560G3X124.1Y97.I-2.45J0.
N30570X134.Y97.I4.95J0.
N30580G1Y145.5
N30590X39.
N30600Y48.5
N30610X134.
N30620Y97.
N30630G3X129.1Y97.I-2.45J0.
N30640X139.Y97.I4.95J0.
N30650G1Y150.5
N30660X34.
N30670Y43.5
N30680X139.
N30690Y97.
N30700G3X134.1Y97.I-2.45J0.
N30710X144.Y97.I4.95J0.
N30720G1Y155.5
N30730X29.
N30740Y38.5
N30750X144.
N30760Y97.
N30770G3X139.1Y97.I-2.45J0.
N30780X149.Y97.I4.95J0.
N30790G1Y157.63
N30800X148.915Y159.761
N30810X148.704Y160.143
N30820X148.351Y160.388
N30830X146.241Y160.5
N30840X26.764
N30850X24.653Y160.389
N30860X24.298Y160.145
N30870X24.085Y159.762
N30880X24.Y157.63
N30890Y36.37
N30900X24.085Y34.238
N30910X24.298Y33.855
N30920X24.653Y33.611
N30930X26.764Y33.5
N30940X146.241
N30950X148.025Y33.546
N30960X148.537Y33.709
N30970X148.539Y33.712
N30980X148.864Y34.166
N30990X148.923Y34.411
N31000X148.999Y36.338
N31010X149.Y36.37
N31020Y97.
N31030G3X146.5Y98.035I-1.465J0.
N31040G2X144.Y97.I-2.5J2.501
N31050G1X139.
N31060X134.
N31070X129.
N31080X124.
N31090X119.
N31100X114.
N31110X109.
N31120X104.
N31130X99.
N31140X94.
N31150G2X91.5Y98.036I0.J3.535
N31160G3X89.Y97.I-1.036J-1.036
N31170G1Y93.5
N31180X84.
N31190Y100.5
N31200X89.
N31210Y97.
N31220G3X91.5Y95.964I1.464J0.
N31230G2X94.Y97.I2.5J-2.5
N31240G0Z10.
N31250X79.Y92.08
N31260Z5.
N31270G1Y88.5Z4.369F209
N31280X94.Z1.725
N31290Y97.Z0.226
N31300Y105.5Z-1.272
N31310X79.Z-3.917
N31320Y88.5Z-6.914
N31330X94.Z-9.558
N31340Y97.Z-11.057
N31350Y105.5Z-12.555
N31360X79.Z-15.2
N31370Y88.5Z-18.197
N31380X94.Z-20.841
N31390Y97.Z-22.339
N31400Y105.5Z-23.838
N31410X79.Z-26.482
N31420Y88.5Z-29.479
N31430X94.Z-32.124
N31440Y97.Z-33.622
N31450Y105.5F620
N31460X79.
N31470Y88.5
N31480X94.
N31490Y97.
N31500G3X89.1Y97.I-2.45J0.
N31510X99.Y97.I4.95J0.
N31520G1Y110.5
N31530X74.
N31540Y83.5
N31550X99.
N31560Y97.
N31570G3X94.1Y97.I-2.45J0.
N31580X104.Y97.I4.95J0.
N31590G1Y115.5
N31600X69.
N31610Y78.5
N31620X104.
N31630Y97.
N31640G3X99.1Y97.I-2.45J0.
N31650X109.Y97.I4.95J0.
N31660G1Y120.5
N31670X64.
N31680Y73.5
N31690X109.
N31700Y97.
N31710G3X104.1Y97.I-2.45J0.
N31720X114.Y97.I4.95J0.
N31730G1Y125.5
N31740X59.
N31750Y68.5
N31760X114.
N31770Y97.
N31780G3X109.1Y97.I-2.45J0.
N31790X119.Y97.I4.95J0.
N31800G1Y130.5
N31810X54.
N31820Y63.5
N31830X119.
N31840Y97.
N31850G3X114.1Y97.I-2.45J0.
N31860X124.Y97.I4.95J0.
N31870G1Y135.5
N31880X49.
N31890Y58.5
N31900X124.
N31910Y97.
N31920G3X119.1Y97.I-2.45J0.
N31930X129.Y97.I4.95J0.
N31940G1Y140.5
N31950X44.
N31960Y53.5
N31970X129.
N31980Y97.
N31990G3X124.1Y97.I-2.45J0.
N32000X134.Y97.I4.95J0.
N32010G1Y145.5
N32020X39.
N32030Y48.5
N32040X134.
N32050Y97.
N32060G3X129.1Y97.I-2.45J0.
N32070X139.Y97.I4.95J0.
N32080G1Y150.5
N32090X34.
N32100Y43.5
N32110X139.
N32120Y97.
N32130G3X134.1Y97.I-2.45J0.
N32140X144.Y97.I4.95J0.
N32150G1Y155.5
N32160X29.
N32170Y38.5
N32180X144.
N32190Y97.
N32200G3X139.1Y97.I-2.45J0.
N32210X149.Y97.I4.95J0.
N32220G1Y157.63
N32230X148.915Y159.761
N32240X148.704Y160.143
N32250X148.351Y160.388
N32260X146.241Y160.5
N32270X26.764
N32280X24.653Y160.389
N32290X24.298Y160.145
N32300X24.085Y159.762
N32310X24.Y157.63
N32320Y36.37
N32330X24.085Y34.238
N32340X24.298Y33.855
N32350X24.653Y33.611
N32360X26.764Y33.5
N32370X146.241
N32380X148.025Y33.546
N32390X148.537Y33.709
N32400X148.539Y33.712
N32410X148.864Y34.166
N32420X148.923Y34.411
N32430X148.999Y36.334
N32440X149.Y36.37
N32450Y97.
N32460G3X146.5Y98.035I-1.465J0.
N32470G2X144.Y97.I-2.5J2.5
N32480G1X139.
N32490X134.
N32500X129.
N32510X124.
N32520X119.
N32530X114.
N32540X109.
N32550X104.
N32560X99.
N32570X94.
N32580G2X91.5Y98.036I0.J3.535
N32590G3X89.Y97.I-1.036J-1.036
N32600G1Y93.5
N32610X84.
N32620Y100.5
N32630X89.
N32640Y97.
N32650G3X91.5Y95.964I1.464J0.
N32660G2X94.Y97.I2.5J-2.5
N32670G0Z10.
N32680X79.Y103.267
N32690Z5.
N32700G1Y88.5Z2.397F209
N32710X94.Z-0.248
N32720Y97.Z-1.746
N32730Y105.5Z-3.245
N32740X79.Z-5.889
N32750Y88.5Z-8.886
N32760X94.Z-11.53
N32770Y97.Z-13.029
N32780Y105.5Z-14.527
N32790X79.Z-17.172
N32800Y88.5Z-20.169
N32810X94.Z-22.813
N32820Y97.Z-24.312
N32830Y105.5Z-25.81
N32840X79.Z-28.455
N32850Y88.5Z-31.452
N32860X94.Z-34.096
N32870Y97.Z-35.594
N32880Y105.5F620
N32890X79.
N32900Y88.5
N32910X94.
N32920Y97.
N32930G3X89.1Y97.I-2.45J0.
N32940X99.Y97.I4.95J0.
N32950G1Y110.5
N32960X74.
N32970Y83.5
N32980X99.
N32990Y97.
N33000G3X94.1Y97.I-2.45J0.
N33010X104.Y97.I4.95J0.
N33020G1Y115.5
N33030X69.
N33040Y78.5
N33050X104.
N33060Y97.
N33070G3X99.1Y97.I-2.45J0.
N33080X109.Y97.I4.95J0.
N33090G1Y120.5
N33100X64.
N33110Y73.5
N33120X109.
N33130Y97.
N33140G3X104.1Y97.I-2.45J0.
N33150X114.Y97.I4.95J0.
N33160G1Y125.5
N33170X59.
N33180Y68.5
N33190X114.
N33200Y97.
N33210G3X109.1Y97.I-2.45J0.
N33220X119.Y97.I4.95J0.
N33230G1Y130.5
N33240X54.
N33250Y63.5
N33260X119.
N33270Y97.
N33280G3X114.1Y97.I-2.45J0.
N33290X124.Y97.I4.95J0.
N33300G1Y135.5
N33310X49.
N33320Y58.5
N33330X124.
N33340Y97.
N33350G3X119.1Y97.I-2.45J0.
N33360X129.Y97.I4.95J0.
N33370G1Y140.5
N33380X44.
N33390Y53.5
N33400X129.
N33410Y97.
N33420G3X124.1Y97.I-2.45J0.
N33430X134.Y97.I4.95J0.
N33440G1Y145.5
N33450X39.
N33460Y48.5
N33470X134.
N33480Y97.
N33490G3X129.1Y97.I-2.45J0.
N33500X139.Y97.I4.95J0.
N33510G1Y150.5
N33520X34.
N33530Y43.5
N33540X139.
N33550Y97.
N33560G3X134.1Y97.I-2.45J0.
N33570X144.Y97.I4.95J0.
N33580G1Y155.5
N33590X29.
N33600Y38.5
N33610X144.
N33620Y97.
N33630G3X139.1Y97.I-2.45J0.
N33640X149.Y97.I4.95J0.
N33650G1Y157.63
N33660X148.915Y159.761
N33670X148.704Y160.143
N33680X148.351Y160.388
N33690X146.241Y160.5
N33700X26.764
N33710X24.653Y160.389
N33720X24.298Y160.145
N33730X24.085Y159.762
N33740X24.Y157.63
N33750Y36.37
N33760X24.085Y34.238
N33770X24.298Y33.855
N33780X24.653Y33.611
N33790X26.764Y33.5
N33800X146.241
N33810X148.025Y33.546
N33820X148.537Y33.709
N33830X148.54Y33.713
N33840X148.864Y34.166
N33850X148.923Y34.412
N33860X148.999Y36.33
N33870X149.Y36.37
N33880Y97.
N33890G3X146.5Y98.035I-1.465J0.
N33900G2X144.Y97.I-2.5J2.5
N33910G1X139.
N33920X134.
N33930X129.
N33940X124.
N33950X119.
N33960X114.
N33970X109.
N33980X104.
N33990X99.
N34000X94.
N34010G2X91.5Y98.036I0.J3.536
N34020G3X89.Y97.I-1.036J-1.036
N34030G1Y93.5
N34040X84.
N34050Y100.5
N34060X89.
N34070Y97.
N34080G3X91.5Y95.964I1.464J0.
N34090G2X94.Y97.I2.5J-2.5
N34100G0Z10.
N34110X87.955Y105.5
N34120Z5.
N34130G1X79.Z3.421F209
N34140Y88.5Z0.424
N34150X94.Z-2.22
N34160Y97.Z-3.719
N34170Y105.5Z-5.217
N34180X79.Z-7.861
N34190Y88.5Z-10.858
N34200X94.Z-13.503
N34210Y97.Z-15.001
N34220Y105.5Z-16.5
N34230X79.Z-19.144
N34240Y88.5Z-22.141
N34250X94.Z-24.785
N34260Y97.Z-26.284
N34270Y105.5Z-27.782
N34280X79.Z-30.427
N34290Y88.5Z-33.424
N34300X94.Z-36.068
N34310Y97.Z-37.567
N34320Y105.5F620
N34330X79.
N34340Y88.5
N34350X94.
N34360Y97.
N34370G3X89.1Y97.I-2.45J0.
N34380X99.Y97.I4.95J0.
N34390G1Y110.5
N34400X74.
N34410Y83.5
N34420X99.
N34430Y97.
N34440G3X94.1Y97.I-2.45J0.
N34450X104.Y97.I4.95J0.
N34460G1Y115.5
N34470X69.
N34480Y78.5
N34490X104.
N34500Y97.
N34510G3X99.1Y97.I-2.45J0.
N34520X109.Y97.I4.95J0.
N34530G1Y120.5
N34540X64.
N34550Y73.5
N34560X109.
N34570Y97.
N34580G3X104.1Y97.I-2.45J0.
N34590X114.Y97.I4.95J0.
N34600G1Y125.5
N34610X59.
N34620Y68.5
N34630X114.
N34640Y97.
N34650G3X109.1Y97.I-2.45J0.
N34660X119.Y97.I4.95J0.
N34670G1Y130.5
N34680X54.
N34690Y63.5
N34700X119.
N34710Y97.
N34720G3X114.1Y97.I-2.45J0.
N34730X124.Y97.I4.95J0.
N34740G1Y135.5
N34750X49.
N34760Y58.5
N34770X124.
N34780Y97.
N34790G3X119.1Y97.I-2.45J0.
N34800X129.Y97.I4.95J0.
N34810G1Y140.5
N34820X44.
N34830Y53.5
N34840X129.
N34850Y97.
N34860G3X124.1Y97.I-2.45J0.
N34870X134.Y97.I4.95J0.
N34880G1Y145.5
N34890X39.
N34900Y48.5
N34910X134.
N34920Y97.
N34930G3X129.1Y97.I-2.45J0.
N34940X139.Y97.I4.95J0.
N34950G1Y150.5
N34960X34.
N34970Y43.5
N34980X139.
N34990Y97.
N35000G3X134.1Y97.I-2.45J0.
N35010X144.Y97.I4.95J0.
N35020G1Y155.5
N35030X29.
N35040Y38.5
N35050X144.
N35060Y97.
N35070G3X139.1Y97.I-2.45J0.
N35080X149.Y97.I4.95J0.
N35090G1Y157.63
N35100X148.915Y159.761
N35110X148.704Y160.143
N35120X148.351Y160.388
N35130X146.241Y160.5
N35140X26.764
N35150X24.653Y160.389
N35160X24.298Y160.145
N35170X24.085Y159.762
N35180X24.Y157.63
N35190Y36.37
N35200X24.085Y34.238
N35210X24.298Y33.855
N35220X24.653Y33.611
N35230X26.764Y33.5
N35240X146.241
N35250X148.025Y33.546
N35260X148.537Y33.709
N35270X148.54Y33.713
N35280X148.864Y34.166
N35290X148.923Y34.412
N35300X148.999Y36.326
N35310X149.Y36.37
N35320Y97.
N35330G3X146.5Y98.035I-1.465J0.
N35340G2X144.Y97.I-2.5J2.5
N35350G1X139.
N35360X134.
N35370X129.
N35380X124.
N35390X119.
N35400X114.
N35410X109.
N35420X104.
N35430X99.
N35440X94.
N35450G2X91.5Y98.036I0.J3.536
N35460G3X89.Y97.I-1.036J-1.036
N35470G1Y93.5
N35480X84.
N35490Y100.5
N35500X89.
N35510Y97.
N35520G3X91.5Y95.964I1.464J0.
N35530G2X94.Y97.I2.5J-2.499
N35540G0Z10.
N35550Y100.357
N35560Z5.
N35570G1Y105.5Z4.093F209
N35580X79.Z1.449
N35590Y88.5Z-1.548
N35600X94.Z-4.192
N35610Y97.Z-5.691
N35620Y105.5Z-7.189
N35630X79.Z-9.834
N35640Y88.5Z-12.831
N35650X94.Z-15.475
N35660Y97.Z-16.974
N35670Y105.5Z-18.472
N35680X79.Z-21.116
N35690Y88.5Z-24.113
N35700X94.Z-26.758
N35710Y97.Z-28.256
N35720Y105.5Z-29.755
N35730X79.Z-32.399
N35740Y88.5Z-35.396
N35750X94.Z-38.04
N35760Y97.Z-39.539
N35770Y105.5F620
N35780X79.
N35790Y88.5
N35800X94.
N35810Y97.
N35820G3X89.1Y97.I-2.45J0.
N35830X99.Y97.I4.95J0.
N35840G1Y110.5
N35850X74.
N35860Y83.5
N35870X99.
N35880Y97.
N35890G3X94.1Y97.I-2.45J0.
N35900X104.Y97.I4.95J0.
N35910G1Y115.5
N35920X69.
N35930Y78.5
N35940X104.
N35950Y97.
N35960G3X99.1Y97.I-2.45J0.
N35970X109.Y97.I4.95J0.
N35980G1Y120.5
N35990X64.
N36000Y73.5
N36010X109.
N36020Y97.
N36030G3X104.1Y97.I-2.45J0.
N36040X114.Y97.I4.95J0.
N36050G1Y125.5
N36060X59.
N36070Y68.5
N36080X114.
N36090Y97.
N36100G3X109.1Y97.I-2.45J0.
N36110X119.Y97.I4.95J0.
N36120G1Y130.5
N36130X54.
N36140Y63.5
N36150X119.
N36160Y97.
N36170G3X114.1Y97.I-2.45J0.
N36180X124.Y97.I4.95J0.
N36190G1Y135.5
N36200X49.
N36210Y58.5
N36220X124.
N36230Y97.
N36240G3X119.1Y97.I-2.45J0.
N36250X129.Y97.I4.95J0.
N36260G1Y140.5
N36270X44.
N36280Y53.5
N36290X129.
N36300Y97.
N36310G3X124.1Y97.I-2.45J0.
N36320X134.Y97.I4.95J0.
N36330G1Y145.5
N36340X39.
N36350Y48.5
N36360X134.
N36370Y97.
N36380G3X129.1Y97.I-2.45J0.
N36390X139.Y97.I4.95J0.
N36400G1Y150.5
N36410X34.
N36420Y43.5
N36430X139.
N36440Y97.
N36450G3X134.1Y97.I-2.45J0.
N36460X144.Y97.I4.95J0.
N36470G1Y155.5
N36480X29.
N36490Y38.5
N36500X144.
N36510Y97.
N36520G3X139.1Y97.I-2.45J0.
N36530X149.Y97.I4.95J0.
N36540G1Y157.63
N36550X148.915Y159.761
N36560X148.704Y160.143
N36570X148.351Y160.388
N36580X146.241Y160.5
N36590X26.764
N36600X24.653Y160.389
N36610X24.298Y160.145
N36620X24.085Y159.762
N36630X24.Y157.63
N36640Y36.37
N36650X24.085Y34.238
N36660X24.298Y33.855
N36670X24.653Y33.611
N36680X26.764Y33.5
N36690X146.241
N36700X148.025Y33.546
N36710X148.537Y33.709
N36720X148.54Y33.713
N36730X148.864Y34.165
N36740X148.923Y34.412
N36750X148.999Y36.322
N36760X149.Y36.37
N36770Y97.
N36780G3X146.5Y98.035I-1.465J0.
N36790G2X144.Y97.I-2.5J2.501
N36800G1X139.
N36810X134.
N36820X129.
N36830X124.
N36840X119.
N36850X114.
N36860X109.
N36870X104.
N36880X99.
N36890X94.
N36900G2X91.5Y98.036I0.J3.536
N36910G3X89.Y97.I-1.036J-1.036
N36920G1Y93.5
N36930X84.
N36940Y100.5
N36950X89.
N36960Y97.
N36970G3X91.5Y95.964I1.464J0.
N36980G2X94.Y97.I2.5J-2.499
N36990G0Z10.
N37000Y89.17
N37010Z5.
N37020G1Y97.Z3.62F209
N37030Y105.5Z2.121
N37040X79.Z-0.523
N37050Y88.5Z-3.52
N37060X94.Z-6.165
N37070Y97.Z-7.663
N37080Y105.5Z-9.162
N37090X79.Z-11.806
N37100Y88.5Z-14.803
N37110X94.Z-17.447
N37120Y97.Z-18.946
N37130Y105.5Z-20.444
N37140X79.Z-23.089
N37150Y88.5Z-26.086
N37160X94.Z-28.73
N37170Y97.Z-30.228
N37180Y105.5Z-31.727
N37190X79.Z-34.371
N37200Y88.5Z-37.368
N37210X94.Z-40.013
N37220Y97.Z-41.511
N37230Y105.5F620
N37240X79.
N37250Y88.5
N37260X94.
N37270Y97.
N37280G3X89.1Y97.I-2.45J0.
N37290X99.Y97.I4.95J0.
N37300G1Y110.5
N37310X74.
N37320Y83.5
N37330X99.
N37340Y97.
N37350G3X94.1Y97.I-2.45J0.
N37360X104.Y97.I4.95J0.
N37370G1Y115.5
N37380X69.
N37390Y78.5
N37400X104.
N37410Y97.
N37420G3X99.1Y97.I-2.45J0.
N37430X109.Y97.I4.95J0.
N37440G1Y120.5
N37450X64.
N37460Y73.5
N37470X109.
N37480Y97.
N37490G3X104.1Y97.I-2.45J0.
N37500X114.Y97.I4.95J0.
N37510G1Y125.5
N37520X59.
N37530Y68.5
N37540X114.
N37550Y97.
N37560G3X109.1Y97.I-2.45J0.
N37570X119.Y97.I4.95J0.
N37580G1Y130.5
N37590X54.
N37600Y63.5
N37610X119.
N37620Y97.
N37630G3X114.1Y97.I-2.45J0.
N37640X124.Y97.I4.95J0.
N37650G1Y135.5
N37660X49.
N37670Y58.5
N37680X124.
N37690Y97.
N37700G3X119.1Y97.I-2.45J0.
N37710X129.Y97.I4.95J0.
N37720G1Y140.5
N37730X44.
N37740Y53.5
N37750X129.
N37760Y97.
N37770G3X124.1Y97.I-2.45J0.
N37780X134.Y97.I4.95J0.
N37790G1Y145.5
N37800X39.
N37810Y48.5
N37820X134.
N37830Y97.
N37840G3X129.1Y97.I-2.45J0.
N37850X139.Y97.I4.95J0.
N37860G1Y150.5
N37870X34.
N37880Y43.5
N37890X139.
N37900Y97.
N37910G3X134.1Y97.I-2.45J0.
N37920X144.Y97.I4.95J0.
N37930G1Y155.5
N37940X29.
N37950Y38.5
N37960X144.
N37970Y97.
N37980G3X139.1Y97.I-2.45J0.
N37990X149.Y97.I4.95J0.
N38000G1Y157.63
N38010X148.915Y159.761
N38020X148.704Y160.143
N38030X148.351Y160.388
N38040X146.241Y160.5
N38050X26.764
N38060X24.653Y160.389
N38070X24.298Y160.145
N38080X24.085Y159.762
N38090X24.Y157.63
N38100Y36.37
N38110X24.085Y34.238
N38120X24.298Y33.855
N38130X24.653Y33.611
N38140X26.764Y33.5
N38150X146.241
N38160X148.025Y33.546
N38170X148.537Y33.709
N38180X148.541Y33.714
N38190X148.864Y34.165
N38200X148.923Y34.413
N38210X148.999Y36.319
N38220X149.Y36.37
N38230Y97.
N38240G3X146.5Y98.035I-1.465J0.
N38250G2X144.Y97.I-2.5J2.5
N38260G1X139.
N38270X134.
N38280X129.
N38290X124.
N38300X119.
N38310X114.
N38320X109.
N38330X104.
N38340X99.
N38350X94.
N38360G2X91.5Y98.036I0.J3.536
N38370G3X89.Y97.I-1.036J-1.036
N38380G1Y93.5
N38390X84.
N38400Y100.5
N38410X89.
N38420Y97.
N38430G3X91.5Y95.964I1.464J0.
N38440G2X94.Y97.I2.5J-2.5
N38450G0Z10.
N38460X83.482Y88.5
N38470Z5.
N38480G1X94.Z3.146F209
N38490Y97.Z1.647
N38500Y105.5Z0.149
N38510X79.Z-2.496
N38520Y88.5Z-5.493
N38530X94.Z-8.137
N38540Y97.Z-9.635
N38550Y105.5Z-11.134
N38560X79.Z-13.778
N38570Y88.5Z-16.775
N38580X94.Z-19.42
N38590Y97.Z-20.918
N38600Y105.5Z-22.417
N38610X79.Z-25.061
N38620Y88.5Z-28.058
N38630X94.Z-30.702
N38640Y97.Z-32.201
N38650Y105.5Z-33.699
N38660X79.Z-36.344
N38670Y88.5Z-39.34
N38680X94.Z-41.985
N38690Y97.Z-43.483
N38700Y105.5F620
N38710X79.
N38720Y88.5
N38730X94.
N38740Y97.
N38750G3X89.1Y97.I-2.45J0.
N38760X99.Y97.I4.95J0.
N38770G1Y110.5
N38780X74.
N38790Y83.5
N38800X99.
N38810Y97.
N38820G3X94.1Y97.I-2.45J0.
N38830X104.Y97.I4.95J0.
N38840G1Y115.5
N38850X69.
N38860Y78.5
N38870X104.
N38880Y97.
N38890G3X99.1Y97.I-2.45J0.
N38900X109.Y97.I4.95J0.
N38910G1Y120.5
N38920X64.
N38930Y73.5
N38940X109.
N38950Y97.
N38960G3X104.1Y97.I-2.45J0.
N38970X114.Y97.I4.95J0.
N38980G1Y125.5
N38990X59.
N39000Y68.5
N39010X114.
N39020Y97.
N39030G3X109.1Y97.I-2.45J0.
N39040X119.Y97.I4.95J0.
N39050G1Y130.5
N39060X54.
N39070Y63.5
N39080X119.
N39090Y97.
N39100G3X114.1Y97.I-2.45J0.
N39110X124.Y97.I4.95J0.
N39120G1Y135.5
N39130X49.
N39140Y58.5
N39150X124.
N39160Y97.
N39170G3X119.1Y97.I-2.45J0.
N39180X129.Y97.I4.95J0.
N39190G1Y140.5
N39200X44.
N39210Y53.5
N39220X129.
N39230Y97.
N39240G3X124.1Y97.I-2.45J0.
N39250X134.Y97.I4.95J0.
N39260G1Y145.5
N39270X39.
N39280Y48.5
N39290X134.
N39300Y97.
N39310G3X129.1Y97.I-2.45J0.
N39320X139.Y97.I4.95J0.
N39330G1Y150.5
N39340X34.
N39350Y43.5
N39360X139.
N39370Y97.
N39380G3X134.1Y97.I-2.45J0.
N39390X144.Y97.I4.95J0.
N39400G1Y155.5
N39410X29.
N39420Y38.5
N39430X144.
N39440Y97.
N39450G3X139.1Y97.I-2.45J0.
N39460X149.Y97.I4.95J0.
N39470G1Y157.63
N39480X148.915Y159.761
N39490X148.704Y160.143
N39500X148.351Y160.388
N39510X146.241Y160.5
N39520X26.764
N39530X24.653Y160.389
N39540X24.298Y160.145
N39550X24.085Y159.762
N39560X24.Y157.63
N39570Y36.37
N39580X24.085Y34.238
N39590X24.298Y33.855
N39600X24.653Y33.611
N39610X26.764Y33.5
N39620X146.241
N39630X148.025Y33.546
N39640X148.537Y33.709
N39650X148.541Y33.714
N39660X148.864Y34.165
N39670X148.923Y34.413
N39680X148.999Y36.315
N39690X149.Y36.37
N39700Y97.
N39710G3X146.5Y98.035I-1.465J0.
N39720G2X144.Y97.I-2.5J2.5
N39730G1X139.
N39740X134.
N39750X129.
N39760X124.
N39770X119.
N39780X114.
N39790X109.
N39800X104.
N39810X99.
N39820X94.
N39830G2X91.5Y98.036I0.J3.536
N39840G3X89.Y97.I-1.036J-1.036
N39850G1Y93.5
N39860X84.
N39870Y100.5
N39880X89.
N39890Y97.
N39900G3X91.5Y95.964I1.464J0.
N39910G2X94.Y97.I2.5J-2.5
N39920G0Z10.
N39930X79.Y95.206
N39940Z5.
N39950G1Y88.5Z3.818F209
N39960X94.Z1.173
N39970Y97.Z-0.325
N39980Y105.5Z-1.824
N39990X79.Z-4.468
N40000Y88.5Z-7.465
N40010X94.Z-10.109
N40020Y97.Z-11.608
N40030Y105.5Z-13.106
N40040X79.Z-15.75
N40050Y88.5Z-18.747
N40060X94.Z-21.392
N40070Y97.Z-22.89
N40080Y105.5Z-24.389
N40090X79.Z-27.033
N40100Y88.5Z-30.03
N40110X94.Z-32.674
N40120Y97.Z-34.173
N40130Y105.5Z-35.671
N40140X79.Z-38.316
N40150Y88.5Z-41.313
N40160X94.Z-43.957
N40170Y97.Z-45.456
N40180Y105.5F620
N40190X79.
N40200Y88.5
N40210X94.
N40220Y97.
N40230G3X89.1Y97.I-2.45J0.
N40240X99.Y97.I4.95J0.
N40250G1Y110.5
N40260X74.
N40270Y83.5
N40280X99.
N40290Y97.
N40300G3X94.1Y97.I-2.45J0.
N40310X104.Y97.I4.95J0.
N40320G1Y115.5
N40330X69.
N40340Y78.5
N40350X104.
N40360Y97.
N40370G3X99.1Y97.I-2.45J0.
N40380X109.Y97.I4.95J0.
N40390G1Y120.5
N40400X64.
N40410Y73.5
N40420X109.
N40430Y97.
N40440G3X104.1Y97.I-2.45J0.
N40450X114.Y97.I4.95J0.
N40460G1Y125.5
N40470X59.
N40480Y68.5
N40490X114.
N40500Y97.
N40510G3X109.1Y97.I-2.45J0.
N40520X119.Y97.I4.95J0.
N40530G1Y130.5
N40540X54.
N40550Y63.5
N40560X119.
N40570Y97.
N40580G3X114.1Y97.I-2.45J0.
N40590X124.Y97.I4.95J0.
N40600G1Y135.5
N40610X49.
N40620Y58.5
N40630X124.
N40640Y97.
N40650G3X119.1Y97.I-2.45J0.
N40660X129.Y97.I4.95J0.
N40670G1Y140.5
N40680X44.
N40690Y53.5
N40700X129.
N40710Y97.
N40720G3X124.1Y97.I-2.45J0.
N40730X134.Y97.I4.95J0.
N40740G1Y145.5
N40750X39.
N40760Y48.5
N40770X134.
N40780Y97.
N40790G3X129.1Y97.I-2.45J0.
N40800X139.Y97.I4.95J0.
N40810G1Y150.5
N40820X34.
N40830Y43.5
N40840X139.
N40850Y97.
N40860G3X134.1Y97.I-2.45J0.
N40870X144.Y97.I4.95J0.
N40880G1Y155.5
N40890X29.
N40900Y38.5
N40910X144.
N40920Y97.
N40930G3X139.1Y97.I-2.45J0.
N40940X149.Y97.I4.95J0.
N40950G1Y157.63
N40960X148.915Y159.761
N40970X148.704Y160.143
N40980X148.351Y160.388
N40990X146.241Y160.5
N41000X26.764
N41010X24.653Y160.389
N41020X24.298Y160.145
N41030X24.085Y159.762
N41040X24.Y157.63
N41050Y36.37
N41060X24.085Y34.238
N41070X24.298Y33.855
N41080X24.653Y33.611
N41090X26.764Y33.5
N41100X146.241
N41110X148.025Y33.546
N41120X148.537Y33.709
N41130X148.541Y33.714
N41140X148.864Y34.165
N41150X148.923Y34.413
N41160X148.999Y36.312
N41170X149.Y36.37
N41180Y97.
N41190G3X146.5Y98.035I-1.465J0.
N41200G2X144.Y97.I-2.5J2.5
N41210G1X139.
N41220X134.
N41230X129.
N41240X124.
N41250X119.
N41260X114.
N41270X109.
N41280X104.
N41290X99.
N41300X94.
N41310G2X91.5Y98.036I0.J3.536
N41320G3X89.Y97.I-1.036J-1.036
N41330G1Y93.5
N41340X84.
N41350Y100.5
N41360X89.
N41370Y97.
N41380G3X91.5Y95.965I1.464J0.
N41390G2X94.Y97.I2.5J-2.501
N41400G0Z10.
N41410X85.598Y105.321
N41420Z5.
N41430G1X79.168Y105.323Z3.866F209
N41440Y88.672Z0.931
N41450X83.854Y88.67Z0.105
N41460X88.147Y88.5Z-0.653
N41470X93.835Z-1.655
N41480Y96.91Z-3.138
N41490X93.836Y105.318Z-4.62
N41500X79.168Y105.323Z-7.206
N41510Y88.672Z-10.142
N41520X83.854Y88.67Z-10.968
N41530X88.147Y88.5Z-11.725
N41540X93.835Z-12.728
N41550Y96.91Z-14.21
N41560X93.836Y105.318Z-15.693
N41570X79.168Y105.323Z-18.279
N41580Y88.672Z-21.214
N41590X83.854Y88.67Z-22.04
N41600X88.147Y88.5Z-22.797
N41610X93.835Z-23.8
N41620Y96.91Z-25.283
N41630X93.836Y105.318Z-26.765
N41640X79.168Y105.323Z-29.351
N41650Y88.672Z-32.286
N41660X83.854Y88.67Z-33.112
N41670X88.147Y88.5Z-33.87
N41680X93.835Z-34.873
N41690Y96.91Z-36.355
N41700X93.836Y105.318Z-37.838
N41710X79.168Y105.323Z-40.424
N41720Y88.672Z-43.359
N41730X83.854Y88.67Z-44.185
N41740X88.147Y88.5Z-44.942
N41750X93.835Z-45.945
N41760Y96.91Z-47.428
N41770X93.836Y105.318F620
N41780X79.168Y105.323
N41790Y88.672
N41800X83.854Y88.67
N41810X86.002Y88.627
N41820X88.147Y88.5
N41830X93.835
N41840Y96.91
N41850G3X88.935Y96.91I-2.45J0.
N41860X98.835Y96.91I4.95J0.
N41870G1X98.836Y110.317
N41880X74.168Y110.324
N41890Y83.674
N41900X83.851Y83.67
N41910X85.9Y83.627
N41920X87.945Y83.5
N41930X98.835
N41940Y96.91
N41950G3X93.935Y96.91I-2.45J0.
N41960X103.835Y96.909I4.95J0.
N41970G1X103.836Y115.315
N41980X69.168Y115.326
N41990Y78.677
N42000X83.849Y78.67
N42010X85.793Y78.627
N42020X87.734Y78.5
N42030X103.835
N42040Y96.909
N42050G3X98.935Y96.91I-2.45J0.
N42060X108.835Y96.909I4.95J-0.001
N42070G1X108.836Y120.314
N42080X64.168Y120.327
N42090Y73.679
N42100X83.847Y73.67
N42110X85.68Y73.627
N42120X87.51Y73.5
N42130X108.834
N42140X108.835Y96.909
N42150G3X103.935Y96.909I-2.45J0.
N42160X113.835Y96.909I4.95J0.
N42170G1X113.837Y125.312
N42180X59.168Y125.329
N42190Y68.681
N42200X83.844Y68.67
N42210X85.497Y68.63
N42220X87.146Y68.512
N42230X87.274Y68.5
N42240X113.834
N42250X113.835Y96.909
N42260G3X108.935Y96.909I-2.45J0.
N42270X118.835Y96.909I4.95J0.
N42280G1X118.837Y130.311
N42290X54.168Y130.33
N42300Y63.684
N42310X83.842Y63.67
N42320X85.259Y63.636
N42330X86.672Y63.535
N42340X87.037Y63.5
N42350X118.834
N42360X118.835Y96.909
N42370G3X113.935Y96.909I-2.45J0.
N42380X123.835Y96.909I4.95J0.
N42390G1X123.837Y135.309
N42400X49.168Y135.332
N42410Y58.686
N42420X83.84Y58.67
N42430X85.02Y58.641
N42440X86.198Y58.557
N42450X86.799Y58.5
N42460X123.834
N42470X123.835Y96.909
N42480G3X118.935Y96.909I-2.45J0.
N42490X128.835Y96.908I4.95J0.
N42500G1X128.837Y140.308
N42510X44.168Y140.334
N42520Y53.688
N42530X83.837Y53.67
N42540X84.782Y53.647
N42550X85.724Y53.58
N42560X86.561Y53.5
N42570X128.834
N42580X128.835Y96.908
N42590G3X123.935Y96.909I-2.45J0.
N42600X133.835Y96.908I4.95J-0.001
N42610G1X133.837Y145.306
N42620X39.168Y145.335
N42630Y48.691
N42640X83.835Y48.67
N42650X84.543Y48.653
N42660X85.25Y48.602
N42670X86.324Y48.5
N42680X121.729
N42690X133.833
N42700X133.835Y96.908
N42710G3X128.935Y96.908I-2.45J0.
N42720X138.835Y96.908I4.95J0.
N42730G1X138.838Y150.305
N42740X34.168Y150.337
N42750Y43.693
N42760X83.833Y43.67
N42770X84.305Y43.659
N42780X84.776Y43.625
N42790X86.086Y43.5
N42800X121.729
N42810X137.594
N42820X137.861Y43.534
N42830X138.346Y43.583
N42840X138.833Y43.608
N42850X138.835Y96.908
N42860G3X133.935Y96.908I-2.45J0.
N42870X143.835Y96.908I4.95J0.
N42880G1X143.838Y155.303
N42890X33.902Y155.337
N42900X29.168Y155.326
N42910Y43.515
N42920X29.192Y38.695
N42930X83.83Y38.67
N42940X84.066Y38.664
N42950X84.302Y38.647
N42960X85.849Y38.5
N42970X121.729
N42980X137.907
N42990X138.485Y38.573
N43000X138.776Y38.601
N43010X139.068Y38.612
N43020X143.822Y38.65
N43030X143.833Y43.508
N43040X143.835Y96.908
N43050G3X138.935Y96.908I-2.45J0.
N43060X148.835Y96.907I4.95J0.
N43070G1X148.838Y157.63
N43080X148.786Y159.716
N43090X148.602Y160.045
N43100X148.15Y160.302
N43110X33.897Y160.337
N43120X24.981Y160.316
N43130X24.544Y160.173
N43140X24.214Y159.716
N43150X24.168Y157.63
N43160Y43.503
N43170X24.214Y34.284
N43180X24.399Y33.954
N43190X24.854Y33.697
N43200X83.828Y33.67
N43210X85.611Y33.5
N43220X121.729
N43230X138.22
N43240X139.108Y33.612
N43250X148.025Y33.684
N43260X148.298Y33.741
N43270X148.714Y34.107
N43280X148.814Y34.587
N43290X148.833Y43.503
N43300X148.835Y96.907
N43310G3X146.335Y97.943I-1.464J0.001
N43320G2X143.835Y96.908I-2.499J2.5
N43330G1X138.835
N43340X133.835
N43350X128.835
N43360X123.835Y96.909
N43370X118.835
N43380X113.835
N43390X108.835
N43400X103.835
N43410X98.835Y96.91
N43420X93.835
N43430G2X91.335Y97.945I0.001J3.535
N43440G3X88.835Y96.91I-1.035J-1.035
N43450G1Y93.5
N43460X88.339
N43470X86.255Y93.621
N43480X84.168Y93.669
N43490Y100.321
N43500X88.836Y100.32
N43510X88.835Y96.91
N43520G3X91.335Y95.874I1.465J0.
N43530G2X93.835Y96.91I2.5J-2.5
N43540G0Z10.
N43550X76.761Y108.053
N43560Z5.
N43570G1X76.447Z4.945F209
N43580Y85.947Z1.048
N43590X78.426Z0.699
N43600X83.723Y85.958Z-0.235
N43610X89.903Y85.588Z-1.326
N43620X90.443Y85.522Z-1.422
N43630X96.553Z-2.499
N43640Y96.975Z-4.518
N43650Y108.053Z-6.471
N43660X76.447Z-10.016
N43670Y85.947Z-13.913
N43680X78.426Z-14.262
N43690X83.723Y85.958Z-15.196
N43700X89.903Y85.588Z-16.287
N43710X90.443Y85.522Z-16.383
N43720X96.553Z-17.46
N43730Y96.975Z-19.479
N43740Y108.053Z-21.432
N43750X76.447Z-24.976
N43760Y85.947Z-28.873
N43770X78.426Z-29.222
N43780X83.723Y85.958Z-30.156
N43790X89.903Y85.588Z-31.247
N43800X90.443Y85.522Z-31.343
N43810X96.553Z-32.421
N43820Y96.975Z-34.439
N43830Y108.053Z-36.392
N43840X76.447Z-39.937
N43850Y85.947Z-43.834
N43860X78.426Z-44.183
N43870X83.723Y85.958Z-45.117
N43880X89.903Y85.588Z-46.208
N43890X90.443Y85.522Z-46.304
N43900X96.553Z-47.381
N43910Y96.975Z-49.4
N43920Y108.053F620
N43930X76.447
N43940Y85.947
N43950X78.426
N43960X83.723Y85.958
N43970X86.819Y85.869
N43980X89.903Y85.588
N43990X90.443Y85.522
N44000X96.553
N44010Y96.975
N44020G3X91.653Y96.975I-2.45J0.
N44030X101.553Y96.975I4.95J0.
N44040G1Y113.053
N44050X71.447
N44060Y80.947
N44070X78.431
N44080X83.734Y80.958
N44090X86.52Y80.878
N44100X89.295Y80.625
N44110X90.138Y80.522
N44120X101.553
N44130Y96.975
N44140G3X96.653Y96.975I-2.45J0.
N44150X106.553Y96.975I4.95J0.
N44160G1Y118.053
N44170X66.447
N44180Y75.947
N44190X78.436
N44200X83.744Y75.958
N44210X86.221Y75.887
N44220X88.688Y75.662
N44230X89.833Y75.522
N44240X106.553
N44250Y96.975
N44260G3X101.653Y96.975I-2.45J0.
N44270X111.553Y96.975I4.95J0.
N44280G1Y123.053
N44290X61.447
N44300Y70.947
N44310X78.442
N44320X83.755Y70.958
N44330X85.922Y70.896
N44340X88.08Y70.699
N44350X89.528Y70.522
N44360X111.553Y70.523
N44370Y96.975
N44380G3X106.653Y96.975I-2.45J0.
N44390X116.553Y96.975I4.95J0.
N44400G1Y128.053
N44410X56.447
N44420Y65.947
N44430X78.447
N44440X83.765Y65.958
N44450X85.622Y65.905
N44460X87.473Y65.736
N44470X89.223Y65.522
N44480X116.553Y65.523
N44490Y96.975
N44500G3X111.653Y96.975I-2.45J0.
N44510X121.553Y96.975I4.95J0.
N44520G1Y133.053
N44530X51.447
N44540Y60.947
N44550X78.452
N44560X83.776Y60.959
N44570X85.323Y60.914
N44580X86.865Y60.773
N44590X88.919Y60.522
N44600X121.553Y60.523
N44610Y96.975
N44620G3X116.653Y96.975I-2.45J0.
N44630X126.553Y96.975I4.95J0.
N44640G1Y138.053
N44650X46.447
N44660Y55.947
N44670X78.457
N44680X83.786Y55.959
N44690X85.024Y55.923
N44700X86.258Y55.81
N44710X88.614Y55.522
N44720X126.553Y55.523
N44730Y96.975
N44740G3X121.653Y96.975I-2.45J0.
N44750X131.553Y96.975I4.95J0.
N44760G1Y143.053
N44770X41.447
N44780Y50.947
N44790X78.463
N44800X83.797Y50.959
N44810X84.725Y50.932
N44820X85.65Y50.847
N44830X88.309Y50.522
N44840X131.553Y50.523
N44850Y96.975
N44860G3X126.653Y96.975I-2.45J0.
N44870X136.553Y96.975I4.95J0.
N44880G1Y148.053
N44890X36.447
N44900Y45.947
N44910X78.468
N44920X83.807Y45.959
N44930X84.426Y45.941
N44940X85.043Y45.884
N44950X88.004Y45.522
N44960X136.296Y45.523
N44970X136.553Y45.577
N44980Y96.975
N44990G3X131.653Y96.975I-2.45J0.
N45000X141.553Y96.975I4.95J0.
N45010G1Y153.053
N45020X31.447
N45030Y40.947
N45040X78.473
N45050X83.818Y40.959
N45060X84.127Y40.95
N45070X84.435Y40.922
N45080X87.699Y40.522
N45090X136.811Y40.523
N45100X138.09Y40.789
N45110X138.578Y40.866
N45120X139.071Y40.894
N45130X141.553Y40.912
N45140Y96.975
N45150G3X136.653Y96.975I-2.45J0.
N45160X146.553Y96.975I4.95J0.
N45170G1Y157.63
N45180X146.241Y158.053
N45190X26.764
N45200X26.447Y157.63
N45210Y36.37
N45220X26.764Y35.947
N45230X78.478
N45240X83.828Y35.959
N45250X87.394Y35.522
N45260X137.325Y35.523
N45270X139.108Y35.894
N45280X146.241Y35.947
N45290X146.553Y36.37
N45300Y96.975
N45310G3X144.053Y98.01I-1.465J0.
N45320G2X141.553Y96.975I-2.5J2.5
N45330G1X136.553
N45340X131.553
N45350X126.553
N45360X121.553
N45370X116.553
N45380X111.553
N45390X106.553
N45400X101.553
N45410X96.553
N45420G2X94.053Y98.01I0.J3.535
N45430G3X91.553Y96.975I-1.036J-1.035
N45440G1Y90.522
N45450X90.747
N45460X90.51Y90.551
N45470G3X83.713Y90.958I-6.682J-54.593
N45480G1X81.447Y90.954
N45490Y103.053
N45500X91.553
N45510Y96.975
N45520G3X96.453Y96.975I2.45J0.
N45530X86.553Y96.975I-4.95J0.
N45540G1Y95.897
N45550X86.5Y95.899
N45560X86.447Y95.901
N45570Y98.053
N45580X86.553
N45590Y96.975
N45600G0Z10.
N45610X81.246Y97.282
N45620Z5.
N45630G1X79.549Y97.454Z4.699F209
N45640X77.766Y97.697Z4.382
N45650X74.501Y98.264Z3.798
N45660Y87.671Z1.931
N45670X76.141Y87.46Z1.639
N45680X77.925Y87.196Z1.321
N45690X81.711Y86.47Z0.641
N45700X84.688Y85.656Z0.097
N45710X86.471Y85.102Z-0.232
N45720X89.596Y84.005Z-0.816
N45730X98.499Y84.004Z-2.385
N45740Y98.264Z-4.899
N45750X95.252Y97.699Z-5.48
N45760X93.468Y97.457Z-5.797
N45770X90.445Y97.148Z-6.333
N45780X87.408Y97.045Z-6.869
N45790X85.624Y97.044Z-7.183
N45800X82.58Y97.146Z-7.72
N45810X79.549Y97.454Z-8.257
N45820X77.766Y97.697Z-8.575
N45830X74.501Y98.264Z-9.159
N45840Y87.671Z-11.026
N45850X76.141Y87.46Z-11.318
N45860X77.925Y87.196Z-11.636
N45870X81.711Y86.47Z-12.315
N45880X84.688Y85.656Z-12.859
N45890X86.471Y85.102Z-13.189
N45900X89.596Y84.005Z-13.772
N45910X98.499Y84.004Z-15.342
N45920Y98.264Z-17.856
N45930X95.252Y97.699Z-18.437
N45940X93.468Y97.457Z-18.754
N45950X90.445Y97.148Z-19.29
N45960X87.408Y97.045Z-19.826
N45970X85.624Y97.044Z-20.14
N45980X82.58Y97.146Z-20.677
N45990X79.549Y97.454Z-21.214
N46000X77.766Y97.697Z-21.532
N46010X74.501Y98.264Z-22.116
N46020Y87.671Z-23.983
N46030X76.141Y87.46Z-24.275
N46040X77.925Y87.196Z-24.592
N46050X81.711Y86.47Z-25.272
N46060X84.688Y85.656Z-25.816
N46070X86.471Y85.102Z-26.145
N46080X89.596Y84.005Z-26.729
N46090X98.499Y84.004Z-28.299
N46100Y98.264Z-30.813
N46110X95.252Y97.699Z-31.394
N46120X93.468Y97.457Z-31.711
N46130X90.445Y97.148Z-32.247
N46140X87.408Y97.045Z-32.783
N46150X85.624Y97.044Z-33.097
N46160X82.58Y97.146Z-33.634
N46170X79.549Y97.454Z-34.171
N46180X77.766Y97.697Z-34.488
N46190X74.501Y98.264Z-35.072
N46200Y87.671Z-36.94
N46210X76.141Y87.46Z-37.231
N46220X77.925Y87.196Z-37.549
N46230X81.711Y86.47Z-38.229
N46240X84.688Y85.656Z-38.773
N46250X86.471Y85.102Z-39.102
N46260X89.596Y84.005Z-39.686
N46270X98.499Y84.004Z-41.256
N46280Y98.264Z-43.769
N46290X95.252Y97.699Z-44.351
N46300X93.468Y97.457Z-44.668
N46310X90.445Y97.148Z-45.204
N46320X87.408Y97.045Z-45.739
N46330X85.624Y97.044Z-46.054
N46340X82.58Y97.146Z-46.591
N46350X79.549Y97.454Z-47.128
N46360X77.766Y97.697Z-47.445
N46370X74.501Y98.264Z-48.029
N46380Y87.671Z-49.897
N46390X76.141Y87.46Z-50.188
N46400X77.925Y87.196Z-50.506
N46410X81.711Y86.47Z-51.186
N46420X83.207Y86.088F620
N46430X84.688Y85.656
N46440X86.471Y85.102
N46450X88.044Y84.582
N46460X89.596Y84.005
N46470X98.499Y84.004
N46480Y98.264
N46490X96.881Y97.952
N46500X95.252Y97.699
N46510X93.468Y97.457
N46520G2X87.408Y97.045I-6.074J44.589
N46530G1X85.624Y97.044
N46540G2X79.549Y97.454I-0.013J45.
N46550G1X77.766Y97.697
N46560X76.128Y97.95
N46570X74.501Y98.264
N46580Y87.671
N46590X75.322Y87.573
N46600X76.141Y87.46
N46610X77.925Y87.196
N46620X79.826Y86.873
N46630X81.711Y86.47
N46640G3X82.84Y91.238I0.565J2.384
N46650X80.559Y81.604I-1.14J-4.817
N46660G1X81.889Y81.265
N46670X83.206Y80.881
N46680X84.989Y80.327
N46690X86.82Y79.71
N46700X88.619Y79.005
N46710X103.499Y79.003
N46720Y104.83
N46730X102.891Y104.634
N46740X102.28Y104.449
N46750X100.497Y103.923
N46760G2X94.577Y102.654I-11.319J38.365
N46770G1X92.794Y102.411
N46780X90.106Y102.137
N46790X87.406Y102.045
N46800X85.623Y102.044
N46810X82.917Y102.135
N46820X80.223Y102.409
N46830X78.44Y102.651
N46840G2X72.535Y103.914I5.388J39.636
N46850G1X70.752Y104.439
N46860X70.125Y104.629
N46870X69.501Y104.829
N46880Y82.949
N46890X70.186Y82.938
N46900X72.805Y82.812
N46910X75.41Y82.513
N46920X77.194Y82.25
N46930X78.883Y81.963
N46940X80.559Y81.604
N46950G3X81.688Y86.372I0.565J2.384
N46960X79.408Y76.738I-1.14J-4.817
N46970G1X80.571Y76.442
N46980X81.723Y76.106
N46990X83.506Y75.552
N47000X85.565Y74.842
N47010X87.576Y74.005
N47020X108.499Y74.003
N47030X108.5Y111.
N47040X105.561
N47050X105.077Y110.787
N47060X102.996Y109.948
N47070X100.865Y109.244
N47080X99.082Y108.718
N47090G2X93.902Y107.608I-9.904J33.57
N47100G1X92.119Y107.365
N47110X89.767Y107.125
N47120X87.405Y107.045
N47130X85.621Y107.044
N47140X83.253Y107.124
N47150X80.896Y107.363
N47160X79.113Y107.606
N47170X76.509Y108.06
N47180X73.947Y108.71
N47190X72.164Y109.235
N47200X70.418Y109.799
N47210X68.704Y110.454
N47220X67.384Y110.998
N47230X64.502
N47240X64.501Y77.817
N47250X66.411Y77.944
N47260X68.325Y77.967
N47270X70.108Y77.939
N47280X72.4Y77.828
N47290X74.679Y77.567
N47300X76.463Y77.304
N47310X77.941Y77.053
N47320X79.408Y76.738
N47330G3X80.536Y81.507I0.564J2.385
N47340X78.256Y71.873I-1.14J-4.817
N47350G1X79.253Y71.619
N47360X80.241Y71.331
N47370X82.024Y70.777
N47380X83.849Y70.145
N47390X85.63Y69.397
N47400X86.485Y69.005
N47410X113.499Y69.003
N47420X113.5Y116.
N47430X104.508
N47440X103.061Y115.362
N47450X101.277Y114.643
N47460X99.451Y114.04
N47470X97.667Y113.514
N47480X95.465Y112.954
N47490X93.227Y112.562
N47500X91.444Y112.319
N47510X89.428Y112.114
N47520X87.403Y112.045
N47530X85.62Y112.044
N47540X83.59Y112.112
N47550X81.57Y112.318
N47560X79.787Y112.56
N47570X77.555Y112.95
N47580X75.358Y113.507
N47590X73.575Y114.032
N47600X72.079Y114.515
N47610X70.61Y115.076
N47620X69.269Y115.629
N47630X68.84Y115.81
N47640X68.413Y115.998
N47650X59.502
N47660X59.501Y72.039
N47670X60.903Y72.315
N47680X62.316Y72.524
N47690X64.1Y72.745
N47700X66.169Y72.928
N47710X68.247Y72.967
N47720X70.03Y72.94
N47730X71.994Y72.844
N47740X73.948Y72.621
N47750X75.732Y72.357
N47760X76.999Y72.142
N47770X78.256Y71.873
N47780G3X79.385Y76.641I0.564J2.384
N47790X77.104Y67.007I-1.141J-4.817
N47800G1X77.935Y66.796
N47810X78.758Y66.555
N47820X80.541Y66.002
N47830X82.062Y65.475
N47840X83.547Y64.852
N47850X85.33Y64.034
N47860X85.362Y64.02
N47870X85.394Y64.005
N47880X118.499Y64.002
N47890X118.5Y121.
N47900X103.433
N47910X103.131Y120.86
N47920X102.827Y120.723
N47930X101.044Y119.937
N47940X99.558Y119.338
N47950X98.036Y118.836
N47960X96.252Y118.31
N47970X94.417Y117.843
N47980X92.552Y117.516
N47990X90.769Y117.273
N48000X89.089Y117.102
N48010X87.402Y117.045
N48020X85.618Y117.044
N48030X83.927Y117.101
N48040X82.243Y117.272
N48050X80.46Y117.514
N48060X78.6Y117.839
N48070X76.77Y118.304
N48080X74.987Y118.828
N48090X73.74Y119.231
N48100X72.516Y119.699
N48110X71.175Y120.252
N48120X70.348Y120.61
N48130X69.536Y120.998
N48140X54.502Y120.999
N48150X54.501Y65.292
N48160X55.993Y65.865
N48170X57.519Y66.342
N48180X59.302Y66.838
N48190X61.102Y67.267
N48200X62.93Y67.562
N48210X64.713Y67.782
N48220X66.438Y67.935
N48230X68.169Y67.968
N48240X69.952Y67.94
N48250X71.589Y67.861
N48260X73.217Y67.675
N48270X75.001Y67.411
N48280X76.057Y67.232
N48290X77.104Y67.007
N48300G3X78.233Y71.776I0.565J2.384
N48310X75.952Y62.142I-1.14J-4.817
N48320G1X76.617Y61.972
N48330X77.275Y61.78
N48340X79.059Y61.227
N48350X80.276Y60.805
N48360X81.463Y60.307
N48370X83.246Y59.489
N48380X83.741Y59.254
N48390X84.23Y59.005
N48400X123.499Y59.002
N48410X123.5Y126.
N48420X102.244
N48430X101.534Y125.635
N48440X100.811Y125.299
N48450X99.027Y124.513
N48460X97.838Y124.033
N48470X96.621Y123.631
N48480X94.837Y123.105
N48490X93.369Y122.732
N48500X91.877Y122.471
N48510X90.094Y122.228
N48520X88.75Y122.091
N48530X87.4Y122.045
N48540X85.617Y122.044
N48550X84.264Y122.09
N48560X82.917Y122.226
N48570X81.134Y122.469
N48580X79.646Y122.729
N48590X78.182Y123.1
N48600X76.398Y123.625
N48610X75.401Y123.947
N48620X74.421Y124.321
N48630X73.081Y124.874
N48640X71.915Y125.399
N48650X70.784Y125.997
N48660X49.502Y125.999
N48670X49.5Y59.002
N48680X52.765Y59.001
N48690X53.647Y59.46
N48700X54.551Y59.874
N48710X56.334Y60.638
N48720X57.581Y61.124
N48730X58.857Y61.525
N48740X60.641Y62.02
N48750X62.081Y62.364
N48760X63.543Y62.6
N48770X65.326Y62.82
N48780X66.706Y62.942
N48790X68.091Y62.969
N48800X69.874Y62.941
N48810X71.184Y62.877
N48820X72.486Y62.728
N48830X74.269Y62.465
N48840X75.114Y62.321
N48850X75.952Y62.142
N48860G3X77.081Y66.91I0.565J2.384
N48870X74.801Y57.276I-1.14J-4.817
N48880G1X75.299Y57.149
N48890X75.793Y57.005
N48900X77.576Y56.452
N48910X78.489Y56.136
N48920X79.379Y55.762
N48930X81.163Y54.944
N48940X82.046Y54.503
N48950X82.899Y54.005
N48960X128.499Y54.001
N48970X128.5Y131.
N48980X100.883
N48990X99.861Y130.396
N49000X98.794Y129.874
N49010X97.011Y129.088
N49020X96.119Y128.728
N49030X95.206Y128.427
N49040X93.422Y127.901
N49050X92.321Y127.621
N49060X91.202Y127.425
N49070X89.419Y127.182
N49080X88.411Y127.079
N49090X87.399Y127.045
N49100X85.616Y127.044
N49110X84.601Y127.078
N49120X83.591Y127.181
N49130X81.807Y127.423
N49140X80.691Y127.618
N49150X79.593Y127.897
N49160X77.81Y128.422
N49170X77.062Y128.663
N49180X76.327Y128.944
N49190X74.986Y129.497
N49200X73.762Y130.067
N49210X72.594Y130.746
N49220X72.202Y130.997
N49230X44.502Y130.999
N49240X44.5Y54.002
N49250X54.153Y54.001
N49260X55.308Y54.693
N49270X56.52Y55.278
N49280X58.303Y56.042
N49290X59.239Y56.407
N49300X60.196Y56.707
N49310X61.979Y57.203
N49320X63.06Y57.461
N49330X64.156Y57.637
N49340X65.939Y57.858
N49350X66.974Y57.949
N49360X68.013Y57.969
N49370X69.796Y57.941
N49380X70.778Y57.894
N49390X71.755Y57.782
N49400X73.538Y57.519
N49410X74.172Y57.411
N49420X74.801Y57.276
N49430G3X75.929Y62.045I0.564J2.384
N49440X73.649Y52.411I-1.14J-4.817
N49450G1X73.981Y52.326
N49460X74.31Y52.23
N49470X76.094Y51.676
N49480X76.702Y51.466
N49490X77.296Y51.216
N49500X79.079Y50.399
N49510X79.883Y49.985
N49520X80.646Y49.501
N49530X81.354Y49.006
N49540X133.499Y49.001
N49550X133.5Y136.
N49560X99.333
N49570X98.445Y135.384
N49580X97.634Y134.877
N49590X96.777Y134.449
N49600X94.994Y133.663
N49610X94.4Y133.424
N49620X93.791Y133.223
N49630X92.008Y132.696
N49640X91.274Y132.51
N49650X90.527Y132.379
N49660X88.744Y132.136
N49670X88.072Y132.068
N49680X87.397Y132.045
N49690X85.614Y132.044
N49700X84.938Y132.067
N49710X84.264Y132.135
N49720X82.481Y132.378
N49730X81.737Y132.508
N49740X81.005Y132.693
N49750X79.222Y133.218
N49760X78.723Y133.379
N49770X78.233Y133.566
N49780X76.892Y134.119
N49790X76.076Y134.5
N49800X75.297Y134.952
N49810X73.671Y135.997
N49820X39.502Y136.
N49830X39.5Y49.003
N49840X55.681Y49.001
N49850X56.832Y49.778
N49860X57.64Y50.269
N49870X58.49Y50.682
N49880X60.273Y51.447
N49890X60.897Y51.689
N49900X61.535Y51.89
N49910X63.318Y52.386
N49920X64.038Y52.557
N49930X64.769Y52.675
N49940X66.552Y52.896
N49950X67.242Y52.957
N49960X67.935Y52.97
N49970X69.718Y52.942
N49980X70.373Y52.91
N49990X71.024Y52.836
N50000X72.807Y52.572
N50010X73.23Y52.501
N50020X73.649Y52.411
N50030G3X74.778Y57.179I0.564J2.384
N50040X72.497Y47.545I-1.141J-4.817
N50050G1X72.663Y47.503
N50060X72.828Y47.455
N50070X74.611Y46.901
N50080X74.915Y46.796
N50090X75.212Y46.671
N50100X76.995Y45.854
N50110X77.397Y45.647
N50120X77.779Y45.405
N50130X79.739Y44.033
N50140X79.759Y44.019
N50150X79.778Y44.006
N50160X138.464Y44.
N50170X138.498Y44.034
N50180X138.5Y140.973
N50190X138.473Y141.
N50200X97.768
N50210X95.595Y139.492
N50220X95.189Y139.238
N50230X94.761Y139.024
N50240X92.978Y138.238
N50250X92.68Y138.119
N50260X92.376Y138.018
N50270X90.593Y137.492
N50280X90.226Y137.399
N50290X89.853Y137.333
N50300X88.069Y137.09
N50310X87.733Y137.056
N50320X87.396Y137.045
N50330X85.613Y137.044
N50340X85.274Y137.056
N50350X84.938Y137.09
N50360X83.154Y137.332
N50370X82.782Y137.397
N50380X82.416Y137.49
N50390X80.633Y138.015
N50400X80.384Y138.095
N50410X80.139Y138.189
N50420X78.798Y138.742
N50430X78.39Y138.932
N50440X78.001Y139.158
N50450X75.775Y140.588
N50460X75.493Y140.783
N50470X75.226Y140.997
N50480X34.528Y141.
N50490X34.502Y140.974
N50500X34.5Y44.036
N50510X34.532Y44.004
N50520X57.215Y44.
N50530X57.272Y44.04
N50540X57.329Y44.08
N50550X59.631Y45.634
N50560X60.034Y45.88
N50570X60.46Y46.087
N50580X62.243Y46.851
N50590X62.554Y46.972
N50600X62.874Y47.073
N50610X64.657Y47.568
N50620X65.017Y47.654
N50630X65.382Y47.713
N50640X67.166Y47.933
N50650X67.511Y47.964
N50660X67.857Y47.97
N50670X69.64Y47.943
N50680X69.967Y47.927
N50690X70.293Y47.89
N50700X72.076Y47.626
N50710X72.288Y47.59
N50720X72.497Y47.545
N50730G3X73.626Y52.313I0.564J2.384
N50740X67.831Y48.598I-1.103J-4.657
N50750X71.345Y42.68I5.038J-1.011
N50760G1X73.129Y42.126
N50770X74.912Y41.309
N50780X76.872Y39.936
N50790X77.874Y39.006
N50800X140.686Y39.
N50810X141.464Y39.936
N50820X142.675Y41.129
N50830X143.498Y41.804
N50840X143.5Y143.189
N50850X142.675Y143.872
N50860X141.394Y145.147
N50870X140.695Y146.
N50880X95.886
N50890X94.975Y145.147
N50900X92.744Y143.6
N50910X90.961Y142.814
N50920X89.178Y142.288
N50930X87.394Y142.045
N50940X85.611Y142.044
N50950X83.828Y142.287
N50960X82.045Y142.811
N50970X80.704Y143.364
N50980X78.478Y144.795
N50990X77.124Y145.997
N51000X32.315Y146.
N51010X31.606Y145.147
N51020X30.331Y143.876
N51030X29.502Y143.196
N51040X29.5Y41.811
N51050X30.331Y41.124
N51060X31.537Y39.936
N51070X32.302Y39.004
N51080X59.111Y39.
N51090X60.128Y39.936
N51100X62.429Y41.491
N51110X64.212Y42.255
N51120X65.996Y42.751
N51130X67.779Y42.971
N51140X69.562Y42.943
N51150X71.345Y42.68
N51160G3X72.868Y44.888I0.219J1.478
N51170G2X72.497Y47.545I3.227J1.806
N51180G1X73.649Y52.411
N51190X74.801Y57.276
N51200X75.952Y62.142
N51210X77.104Y67.007
N51220X78.256Y71.873
N51230X79.408Y76.738
N51240X80.559Y81.604
N51250X81.711Y86.47
N51260G2X83.295Y88.664I3.441J-0.815
N51270G3X82.863Y91.335I-0.769J1.246
N51280G1X81.188Y91.701
N51290X79.501Y92.01
N51300Y92.419
N51310X82.558Y92.138
N51320X85.626Y92.044
N51330X87.409Y92.045
N51340X90.46Y92.139
N51350X93.499Y92.419
N51360Y89.004
N51370X90.518Y89.005
N51380X89.242Y89.459
N51390X87.954Y89.878
N51400X86.171Y90.431
N51410X84.525Y90.912
N51420X82.863Y91.335
N51430G3X81.279Y89.141I-0.337J-1.425
N51440G2X81.711Y86.47I-3.008J-1.857
N51450G0Z10.
N51460X91.362Y97.242
N51470Z5.
N51480G1X90.445Y97.148Z4.838F209
N51490X87.408Y97.045Z4.302
N51500X85.624Y97.044Z3.987
N51510X82.58Y97.146Z3.45
N51520X79.55Y97.454Z2.913
N51530X77.767Y97.697Z2.596
N51540X74.501Y98.264Z2.012
