O0001
(TORNO MIRAC / FANUCL)
(PROGRAMADOR MARCOS BARATIERI)
(MATERIAL: COBRE)
[BILLET X45 Z67
N005 G21 g50 s500 G96 S100 G99 F0.15
N006 G96 S6000 G99 F0.15
N007 G54 X45 Z65
N010 M03 M08
(FACEAMENTO - FERRAMENTA 07)
N015 G28 M06 M08 T0707
N020 G00 X47 Z3
N025 G94 X0
N030 Z2
N035 Z1
N040 Z0
(PERFILAMENTO C/ SOBREMATERIAL)
N045 G00 X47 Z1
N050 G42
N055 G71 U02 R02
N060 G71 P070 Q115 U02 W01 F0.1
N065 G00 X46
N070 G01 X20
N075 X22 Z-20
N076 X28
N080 X30 Z-22
N085 Z-37
N090 X33
N091 G02 X35 Z-39 R02
N095 G01 Z-45
N100 X38
N101 X40 Z-47
N105 Z-54
N110 G02 X44 Z-58 R04
N111 G01 X45 Z-60
N115 Z-65
N120 G28 G40
N125 T0101 M06
N130 G00 X47 Z1
N135 G42
N140 G70 P070 Q120 F0.2
N145 G40 G28
(CANAL DE 2MM)
N150 G28 M06 M08 T0505
N155 G00 X35 Z-37
N160 G75 X25 P500 F0.1
(ABERTURA DE ROSCA)
N165 G28 M06 M08 T0303
N170 G96 G99 S65 F0.1
N175 G00 X30 Z-20
N180 G76 P040060 Q250 R0.1
N185 G76 X26 Z-35 P1000 Q250 F4.5
(FINAL DE PROGRAMA)
N190 M02 M05 M09
N195 M30
