O0001
(PECA TORNEAMENTO)
(BOSCATTO E DELORENSI)
(05/11/2019)
(TORNO MIRAC PC)
(FANUC OT)

[BILLET X56.4 Z84

N05 G54 G28 G21

(DESB. FACEAMENTO)
N10 T0707 M06
N15 G97 G99 S2100 M03 M08
N20 G00 X57.4 Z2.4
N25 G94 X-0.5 Z2.4 F0.25
N30 Z1.3
N35 Z0.2
N40 G00 Z1
N45 X56.4

(DESB. CILINDRAGEM)
N50 G96 S350
N55 G90 X55.8 Z-50.9 F0.25
N60 X55.2
N65 G00 Z1
N70 G28

(ACAB.)
N75 T0101 M06
N80 G97 S3100
N85 G00 X55.5 Z0
N90 G01 X-0.5 F0.12
N95 G00 Z1
N100 X55
N105 G96 S350
N110 G01 Z-50.9 F0.12
N115 G00 X56
N120 Z0
N125 X52

(CHANFRO)
N130 G01 X55 Z-1.5 F0.12
N135 G28

(RASGO 1)
N140 T0505 M06
N145 G00 X56 Z-5
N150 G75 X47 Z-25 P2000 Q1800
N155 G28

(FURO DE CENTRO)
N160 T0808 M06
N165 G97 S2500
N170 G00 X0 Z1
N175 G01 Z-7 F0.25
N180 G00 Z1
N185 G28

(MEIO FURO BROCA 6MM)
N190 T0404 M06
N195 G00 X0 Z1
N200 G83 Z0 F0.25
N205 Z-5
N210 Z-10
N215 Z-15
N220 Z-20
N225 Z-25
N230 Z-30
N235 Z-35
N240 Z-40
N245 G00 Z1
N250 G28

(MEIO FURO BROCA 10MM)
N255 T0202 M06
N260 G00 X0 Z1
N265 G83 Z0 F0.25
N270 Z-5
N275 Z-10
N280 Z-15
N285 Z-20
N290 Z-25
N295 Z-30
N300 Z-35
N305 Z-40
N310 G00 Z1
N315 G28

(DESBASTE CONT. INT.)
N320 T0606 M06
N325 G00 X10 Z0
N330 G41 G96 S350
N335 G71 U1.5 R0.3
N340 G71 P345 Q360 U-0.2 W0.2 F0.25
N345 G00 X30
N350 G01 Z-15
N355 G03 X10 Z-29.14 R15
N360 G00 Z0
N365 G40 G28

(ACABAM. CONT. INT.)
N370 G41 G70 P345 Q360 F0.12
N375 G40
N380 M05 M09

N385 M00

(VIRA A PECA)

N390 M30
